luts/cine_teal_orange.cube
TITLE "Cinematic Teal & Orange"
# generated procedurally for DLSSNRExport
LUT_3D_SIZE 5
0.000000 0.008270 0.047120
0.201986 0.005172 0.040303
0.494890 0.001402 0.031720
0.787862 0.000000 0.023095
1.000000 0.000000 0.016184
0.000000 0.231138 0.024081
0.204483 0.228311 0.017174
0.497570 0.224883 0.008479
0.790725 0.221581 0.000000
1.000000 0.219038 0.000000
0.000000 0.511799 0.000000
0.208306 0.509313 0.000000
0.501623 0.506312 0.000000
0.795009 0.503438 0.000000
1.000000 0.501236 0.000000
0.000000 0.793898 0.000000
0.212903 0.791753 0.000000
0.506450 0.789179 0.000000
0.800065 0.786732 0.000000
1.000000 0.784871 0.000000
0.000000 1.000000 0.000000
0.217125 1.000000 0.000000
0.510855 1.000000 0.000000
0.804653 1.000000 0.000000
1.000000 1.000000 0.000000
0.000000 0.007209 0.277777
0.202216 0.004138 0.270951
0.495138 0.000403 0.262356
0.788129 0.000000 0.253720
1.000000 0.000000 0.246800
0.000000 0.230169 0.254707
0.204762 0.227370 0.247791
0.497868 0.223975 0.239084
0.791042 0.220708 0.230336
1.000000 0.218193 0.223327
0.000000 0.510946 0.225363
0.208648 0.508488 0.218335
0.501984 0.505521 0.209487
0.795387 0.502681 0.200598
1.000000 0.500506 0.193477
0.000000 0.793160 0.195545
0.213307 0.791043 0.188405
0.506872 0.788504 0.179417
0.800506 0.786091 0.170387
1.000000 0.784258 0.163153
0.000000 1.000000 0.171419
0.217578 1.000000 0.164189
0.511327 1.000000 0.155089
0.805144 1.000000 0.145946
1.000000 1.000000 0.138623
0.000000 0.005892 0.566905
0.202511 0.002855 0.560068
0.495457 0.000000 0.551459
0.788470 0.000000 0.542809
1.000000 0.000000 0.535878
0.000000 0.228967 0.543797
0.205119 0.226203 0.536870
0.498248 0.222852 0.528149
0.791445 0.219628 0.519387
1.000000 0.217147 0.512366
0.000000 0.509889 0.514406
0.209083 0.507466 0.507366
0.502442 0.504542 0.498505
0.795869 0.501745 0.489601
1.000000 0.499605 0.482468
0.000000 0.792249 0.484540
0.213821 0.790166 0.477389
0.507409 0.787670 0.468386
0.801066 0.785301 0.459342
1.000000 0.783502 0.452097
0.000000 1.000000 0.460376
0.218154 1.000000 0.453135
0.511926 1.000000 0.444020
0.805766 1.000000 0.434863
1.000000 1.000000 0.427529
0.000000 0.004589 0.856029
0.202814 0.001587 0.849180
0.495783 0.000000 0.840557
0.788820 0.000000 0.831893
1.000000 0.000000 0.824950
0.000000 0.227781 0.832883
0.205484 0.225051 0.825945
0.498636 0.221743 0.817209
0.791857 0.218562 0.808432
1.000000 0.216115 0.801401
0.000000 0.508848 0.803443
0.209526 0.506459 0.796393
0.502908 0.503578 0.787517
0.796359 0.500824 0.778599
1.000000 0.498719 0.771455
0.000000 0.791353 0.773530
0.214342 0.789304 0.766367
0.507953 0.786851 0.757351
0.801633 0.784525 0.748292
1.000000 0.782760 0.741036
0.000000 1.000000 0.749328
0.218737 1.000000 0.742075
0.512532 1.000000 0.732946
0.806396 1.000000 0.723776
1.000000 1.000000 0.716430
0.000000 0.003561 1.000000
0.203061 0.000586 1.000000
0.496048 0.000000 1.000000
0.789104 0.000000 1.000000
1.000000 0.000000 1.000000
0.000000 0.226844 1.000000
0.205781 0.224142 1.000000
0.498952 0.220868 1.000000
0.792191 0.217722 1.000000
1.000000 0.215303 1.000000
0.000000 0.508027 1.000000
0.209886 0.505666 1.000000
0.503286 0.502819 1.000000
0.796755 0.500100 1.000000
1.000000 0.498022 1.000000
0.000000 0.790648 1.000000
0.214763 0.788627 0.996897
0.508393 0.786208 0.987870
0.802092 0.783917 0.978800
1.000000 0.782179 0.971534
0.000000 1.000000 0.979836
0.219208 1.000000 0.972575
0.513022 1.000000 0.963435
0.806904 1.000000 0.954253
1.000000 1.000000 0.946898
