luts/cine_film_warm.cube
TITLE "Cinematic Warm Film"
# generated procedurally for DLSSNRExport
LUT_3D_SIZE 5
0.030117 0.030015 0.029869
0.725650 0.037765 0.037023
0.880093 0.039483 0.038641
0.947944 0.040238 0.039355
0.986076 0.040662 0.039757
0.056452 0.731656 0.054326
0.757716 0.739023 0.062227
0.909527 0.740546 0.063963
0.975785 0.741202 0.064724
1.000000 0.741568 0.065151
0.061926 0.884827 0.059976
0.757895 0.891581 0.067951
0.907698 0.892947 0.069693
0.972980 0.893531 0.070456
1.000000 0.893856 0.070883
0.064289 0.951797 0.062481
0.757197 0.958224 0.070479
0.905957 0.959507 0.072222
0.970740 0.960054 0.072984
1.000000 0.960357 0.073411
0.065605 0.989346 0.063895
0.756597 0.995573 0.071903
0.904729 0.996806 0.073646
0.969213 0.997331 0.074407
1.000000 0.997621 0.074834
0.032829 0.032566 0.697559
0.731123 0.040298 0.693618
0.885781 0.042010 0.693459
0.953681 0.042762 0.693469
0.991830 0.043184 0.693495
0.058884 0.734041 0.704117
0.758018 0.741224 0.717388
0.908974 0.742706 0.720949
0.974813 0.743344 0.722583
1.000000 0.743699 0.723520
0.064319 0.887049 0.713256
0.757089 0.893584 0.730203
0.905802 0.894900 0.734559
0.970562 0.895462 0.736540
1.000000 0.895774 0.737671
0.066667 0.953933 0.718129
0.755907 0.960125 0.736676
0.903475 0.961355 0.741378
0.967692 0.961879 0.743510
1.000000 0.962169 0.744726
0.067975 0.991430 0.721095
0.755036 0.997413 0.740539
0.901918 0.998591 0.745434
0.965811 0.999092 0.747650
1.000000 0.999369 0.748914
0.033415 0.033119 0.842400
0.732248 0.040848 0.836476
0.886938 0.042559 0.836026
0.954844 0.043310 0.835923
0.992992 0.043732 0.835891
0.059413 0.734556 0.846539
0.758017 0.741700 0.861428
0.908772 0.743172 0.865486
0.974513 0.743807 0.867353
1.000000 0.744159 0.868425
0.064841 0.887527 0.856768
0.756847 0.894016 0.876122
0.905307 0.895321 0.881146
0.969947 0.895878 0.883436
1.000000 0.896188 0.884745
0.067186 0.954393 0.862302
0.755559 0.960534 0.883601
0.902853 0.961753 0.889047
0.966939 0.962271 0.891521
1.000000 0.962558 0.892933
0.068494 0.991878 0.865688
0.754630 0.997809 0.888078
0.901225 0.998975 0.893759
0.964981 0.999471 0.896337
1.000000 0.999744 0.897807
0.033671 0.033361 0.905743
0.732733 0.041089 0.899000
0.887436 0.042799 0.898434
0.955343 0.043550 0.898287
0.993491 0.043972 0.898232
0.059645 0.734781 0.908991
0.758010 0.741908 0.924640
0.908674 0.743376 0.928926
0.974372 0.744009 0.930901
1.000000 0.744361 0.932035
0.065070 0.887736 0.919736
0.756733 0.894204 0.940194
0.905081 0.895504 0.945522
0.969668 0.896060 0.947952
1.000000 0.896368 0.949342
0.067414 0.954594 0.925575
0.755400 0.960713 0.948131
0.902571 0.961926 0.953913
0.966600 0.962443 0.956542
1.000000 0.962729 0.958043
0.068721 0.992074 0.929155
0.754444 0.997982 0.952885
0.900912 0.999143 0.958922
0.964608 0.999636 0.961663
1.000000 0.999908 0.963226
0.033814 0.033496 0.941271
0.733003 0.041224 0.934082
0.887712 0.042934 0.933453
0.955620 0.043685 0.933283
0.993768 0.044107 0.933216
0.059776 0.734907 0.944064
0.758003 0.742024 0.960153
0.908617 0.743491 0.964570
0.974290 0.744122 0.966606
1.000000 0.744473 0.967776
0.065199 0.887853 0.955108
0.756667 0.894310 0.976200
0.904952 0.895607 0.981701
0.969509 0.896162 0.984212
1.000000 0.896469 0.985647
0.067542 0.954706 0.961123
0.755308 0.960813 0.984397
0.902411 0.962023 0.990372
0.966407 0.962539 0.993089
1.000000 0.962824 0.994641
0.068848 0.992183 0.964814
0.754338 0.998078 0.989311
0.900734 0.999237 0.995550
0.964396 0.999728 0.998383
1.000000 1.000000 1.000000
