luts/cine_bleach_bypass.cube
TITLE "Cinematic Bleach Bypass"
# generated procedurally for DLSSNRExport
LUT_3D_SIZE 33
0.000000 0.000000 0.012000
0.000000 0.001513 0.013513
0.007362 0.003062 0.015062
0.018707 0.004647 0.016647
0.031103 0.006268 0.018268
0.044503 0.007924 0.019924
0.058864 0.009616 0.021616
0.074140 0.011342 0.023342
0.090287 0.013103 0.025103
0.107259 0.014899 0.026899
0.125012 0.016729 0.028729
0.143500 0.018593 0.030593
0.162679 0.020490 0.032490
0.182504 0.022421 0.034421
0.202931 0.024386 0.036386
0.223913 0.026383 0.038383
0.245407 0.028413 0.040413
0.267367 0.030476 0.042476
0.289749 0.032571 0.044571
0.312507 0.034698 0.046698
0.335597 0.036857 0.048857
0.358974 0.039048 0.051048
0.382593 0.041270 0.053270
0.406408 0.043523 0.055523
0.430376 0.045806 0.057806
0.454452 0.048121 0.060121
0.478589 0.050466 0.062466
0.502744 0.052840 0.064840
0.526872 0.055245 0.067245
0.550928 0.057680 0.069680
0.574866 0.060143 0.072143
0.598642 0.062636 0.074636
0.622211 0.065158 0.077158
0.000000 0.013224 0.017233
0.003022 0.015022 0.018867
0.013924 0.016854 0.020536
0.025894 0.018720 0.022240
0.038888 0.020620 0.023979
0.052860 0.022553 0.025753
0.067766 0.024520 0.027561
0.083561 0.026520 0.029404
0.100200 0.028552 0.031280
0.117638 0.030617 0.033190
0.135830 0.032714 0.035133
0.154731 0.034844 0.037109
0.174297 0.037005 0.039119
0.194482 0.039197 0.041161
0.215242 0.041421 0.043235
0.236531 0.043676 0.045342
0.258306 0.045962 0.047481
0.280520 0.048279 0.049651
0.303129 0.050625 0.051853
0.326088 0.053002 0.054086
0.349353 0.055409 0.056350
0.372878 0.057846 0.058645
0.396618 0.060311 0.060971
0.420529 0.062806 0.063327
0.444566 0.065330 0.065712
0.468684 0.067883 0.068128
0.492837 0.070463 0.070573
0.516981 0.073073 0.073048
0.541072 0.075710 0.075551
0.565064 0.078374 0.078083
0.588912 0.081066 0.080644
0.612571 0.083786 0.083234
0.635997 0.086532 0.085851
0.000000 0.028691 0.022869
0.009320 0.030758 0.024621
0.020858 0.032858 0.026407
0.033437 0.034989 0.028228
0.047013 0.037152 0.030083
0.061542 0.039347 0.031971
0.076978 0.041573 0.033893
0.093276 0.043830 0.035848
0.110391 0.046118 0.037837
0.128279 0.048437 0.039858
0.146895 0.050785 0.041912
0.166194 0.053164 0.043998
0.186130 0.055573 0.046117
0.206660 0.058012 0.048267
0.227737 0.060479 0.050449
0.249318 0.062976 0.052663
0.271357 0.065502 0.054907
0.293810 0.068056 0.057182
0.316631 0.070639 0.059489
0.339776 0.073250 0.061825
0.363200 0.075889 0.064192
0.386857 0.078556 0.066588
0.410704 0.081250 0.069015
0.434694 0.083971 0.071471
0.458784 0.086719 0.073956
0.482928 0.089494 0.076470
0.507081 0.092295 0.079013
0.531200 0.095123 0.081584
0.555237 0.097976 0.084183
0.579150 0.100855 0.086811
0.602892 0.103760 0.089466
0.626419 0.106690 0.092149
0.649687 0.109645 0.094859
0.004899 0.046274 0.028899
0.015996 0.048595 0.030766
0.028154 0.050946 0.032667
0.041327 0.053327 0.034601
0.055470 0.055737 0.036569
0.070539 0.058178 0.038569
0.086489 0.060648 0.040602
0.103275 0.063146 0.042668
0.120851 0.065674 0.044766
0.139174 0.068231 0.046896
0.158198 0.070815 0.049058
0.177878 0.073428 0.051251
0.198170 0.076069 0.053476
0.219028 0.078737 0.055732
0.240408 0.081433 0.058018
0.262265 0.084156 0.060336
0.284553 0.086906 0.062683
0.307228 0.089683 0.065061
0.330246 0.092486 0.067468
0.353561 0.095315 0.069905
0.377128 0.098170 0.072372
0.400902 0.101051 0.074868
0.424839 0.103958 0.077392
0.448893 0.106889 0.079945
0.473021 0.109846 0.082527
0.497176 0.112828 0.085137
0.521314 0.115833 0.087774
0.545390 0.118864 0.090440
0.569359 0.121918 0.093133
0.593176 0.124996 0.095853
0.616797 0.128098 0.098600
0.640177 0.131222 0.101373
0.663270 0.134370 0.104173
0.011314 0.065846 0.035314
0.023042 0.068405 0.037293
0.035803 0.070991 0.039305
0.049554 0.073606 0.041351
0.064249 0.076249 0.043428
0.079843 0.078919 0.045538
0.096291 0.081617 0.047679
0.113549 0.084342 0.049853
0.131571 0.087093 0.052058
0.150313 0.089872 0.054294
0.169729 0.092677 0.056561
0.189775 0.095508 0.058859
0.210407 0.098365 0.061187
0.231578 0.101247 0.063545
0.253244 0.104156 0.065934
0.275361 0.107089 0.068352
0.297883 0.110047 0.070800
0.320766 0.113030 0.073277
0.343964 0.116038 0.075783
0.367433 0.119070 0.078318
0.391128 0.122126 0.080882
0.415003 0.125205 0.083474
0.439015 0.128308 0.086094
0.463118 0.131435 0.088742
0.487267 0.134584 0.091417
0.511417 0.137757 0.094120
0.535524 0.140951 0.096850
0.559543 0.144169 0.099606
0.583428 0.147408 0.102390
0.607135 0.150669 0.105199
0.630619 0.153952 0.108035
0.653835 0.157256 0.110897
0.676738 0.160581 0.113784
0.018103 0.087281 0.042103
0.030446 0.090061 0.044192
0.043797 0.092868 0.046314
0.058110 0.095700 0.048467
0.073340 0.098559 0.050652
0.089444 0.101444 0.052868
0.106375 0.104353 0.055115
0.124089 0.107289 0.057394
0.142541 0.110249 0.059703
0.161686 0.113233 0.062042
0.181479 0.116243 0.064411
0.201876 0.119276 0.066811
0.222831 0.122334 0.069240
0.244300 0.125415 0.071699
0.266237 0.128519 0.074186
0.288599 0.131647 0.076703
0.311339 0.134799 0.079248
0.334413 0.137972 0.081822
0.357776 0.141169 0.084424
0.381384 0.144387 0.087055
0.405191 0.147628 0.089712
0.429152 0.150891 0.092398
0.453223 0.154175 0.095110
0.477358 0.157480 0.097850
0.501514 0.160807 0.100616
0.525644 0.164154 0.103409
0.549704 0.167522 0.106229
0.573649 0.170910 0.109074
0.597435 0.174319 0.111945
0.621016 0.177747 0.114842
0.644347 0.181195 0.117764
0.667384 0.184663 0.120711
0.690081 0.188149 0.123683
0.025259 0.110450 0.049259
0.038202 0.113436 0.051455
0.052125 0.116447 0.053683
0.066985 0.119482 0.055941
0.082735 0.122541 0.058231
0.099332 0.125624 0.060551
0.116731 0.128731 0.062901
0.134885 0.131860 0.065282
0.153752 0.135013 0.067692
0.173284 0.138188 0.070132
0.193439 0.141386 0.072601
0.214171 0.144606 0.075099
0.235434 0.147848 0.077626
0.257185 0.151112 0.080182
0.279378 0.154398 0.082766
0.301968 0.157705 0.085379
0.324911 0.161033 0.088019
0.348161 0.164382 0.090687
0.371673 0.167751 0.093382
0.395404 0.171141 0.096105
0.419307 0.174551 0.098854
0.443339 0.177980 0.101630
0.467453 0.181430 0.104433
0.491606 0.184898 0.107262
0.515752 0.188386 0.110116
0.539846 0.191893 0.112997
0.563844 0.195418 0.115903
0.587700 0.198962 0.118834
0.611371 0.202524 0.121790
0.634810 0.206104 0.124771
0.657973 0.209702 0.127777
0.680815 0.213317 0.130806
0.703291 0.216949 0.133860
0.032771 0.135227 0.056771
0.046298 0.138404 0.059072
0.060779 0.141603 0.061403
0.076170 0.144825 0.063764
0.092425 0.148069 0.066156
0.109500 0.151334 0.068577
0.127350 0.154621 0.071027
0.145930 0.157930 0.073507
0.165194 0.161259 0.076016
0.185100 0.164609 0.078554
0.205600 0.167980 0.081120
0.226651 0.171371 0.083714
0.248207 0.174782 0.086337
0.270224 0.178213 0.088987
0.292656 0.181664 0.091665
0.315460 0.185134 0.094370
0.338589 0.188623 0.097103
0.362000 0.192131 0.099862
0.385646 0.195658 0.102648
0.409484 0.199203 0.105460
0.433469 0.202766 0.108298
0.457554 0.206347 0.111162
0.481697 0.209946 0.114052
0.505851 0.213562 0.116967
0.529972 0.217196 0.119907
0.554015 0.220846 0.122873
0.577935 0.224513 0.125863
0.601687 0.228196 0.128877
0.625226 0.231896 0.131915
0.648508 0.235612 0.134978
0.671487 0.239343 0.138064
0.694119 0.243090 0.141174
0.716358 0.246853 0.144307
0.040631 0.161485 0.064631
0.054726 0.164837 0.067034
0.069749 0.168209 0.069465
0.085655 0.171601 0.071927
0.102400 0.175014 0.074417
0.119937 0.178446 0.076936
0.138223 0.181898 0.079484
0.157212 0.185370 0.082061
0.176860 0.188860 0.084666
0.197122 0.192369 0.087298
0.217952 0.195897 0.089959
0.239306 0.199444 0.092647
0.261140 0.203008 0.095362
0.283407 0.206590 0.098104
0.306064 0.210190 0.100873
0.329065 0.213808 0.103668
0.352366 0.217442 0.106490
0.375921 0.221094 0.109338
0.399686 0.224762 0.112211
0.423616 0.228447 0.115110
0.447665 0.232147 0.118035
0.471790 0.235864 0.120984
0.495945 0.239597 0.123958
0.520085 0.243345 0.126957
0.544165 0.247108 0.129980
0.568141 0.250886 0.133028
0.591967 0.254679 0.136099
0.615599 0.258487 0.139194
0.638992 0.262308 0.142312
0.662100 0.266144 0.145453
0.684880 0.269994 0.148617
0.707286 0.273857 0.151804
0.729273 0.277733 0.155013
0.048830 0.189097 0.072830
0.063478 0.192608 0.075331
0.079027 0.196137 0.077861
0.095433 0.199684 0.080419
0.112650 0.203250 0.083006
0.130634 0.206834 0.085621
0.149341 0.210435 0.088264
0.168724 0.214053 0.090934
0.188739 0.217689 0.093632
0.209342 0.221342 0.096357
0.230487 0.225011 0.099109
0.252129 0.228697 0.101888
0.274224 0.232399 0.104693
0.296726 0.236116 0.107524
0.319592 0.239850 0.110381
0.342775 0.243599 0.113264
0.366231 0.247363 0.116172
0.389915 0.251143 0.119106
0.413783 0.254937 0.122064
0.437789 0.258745 0.125047
0.461888 0.262568 0.128055
0.486036 0.266404 0.131087
0.510187 0.270255 0.134143
0.534297 0.274119 0.137223
0.558321 0.277996 0.140326
0.582215 0.281887 0.143453
0.605932 0.285790 0.146602
0.629428 0.289705 0.149775
0.652659 0.293633 0.152970
0.675579 0.297573 0.156187
0.698143 0.301525 0.159426
0.720308 0.305489 0.162687
0.742027 0.309464 0.165970
0.057358 0.217936 0.081358
0.072543 0.221590 0.083955
0.088602 0.225260 0.086580
0.105492 0.228947 0.089233
0.123168 0.232650 0.091913
0.141583 0.236369 0.094621
0.160694 0.240103 0.097356
0.180455 0.243854 0.100117
0.200822 0.247619 0.102906
0.221750 0.251399 0.105720
0.243194 0.255194 0.108561
0.265109 0.259003 0.111427
0.287449 0.262827 0.114320
0.310171 0.266665 0.117237
0.333230 0.270516 0.120180
0.356579 0.274381 0.123147
0.380175 0.278259 0.126139
0.403973 0.282150 0.129156
0.427928 0.286054 0.132197
0.451994 0.289971 0.135261
0.476127 0.293900 0.138350
0.500283 0.297841 0.141462
0.524415 0.301793 0.144597
0.548480 0.305758 0.147755
0.572433 0.309733 0.150935
0.596227 0.313720 0.154138
0.619820 0.317718 0.157364
0.643165 0.321726 0.160611
0.666218 0.325744 0.163880
0.688933 0.329773 0.167171
0.711267 0.333812 0.170482
0.733174 0.337860 0.173815
0.754610 0.341917 0.177169
0.066205 0.247874 0.090205
0.081912 0.251656 0.092896
0.098467 0.255452 0.095614
0.115825 0.259262 0.098358
0.133942 0.263087 0.101129
0.152774 0.266925 0.103927
0.172274 0.270778 0.106751
0.192398 0.274643 0.109602
0.213101 0.278522 0.112477
0.234338 0.282415 0.115379
0.256065 0.286319 0.118306
0.278237 0.290237 0.121257
0.300808 0.294166 0.124234
0.323733 0.298108 0.127235
0.346969 0.302062 0.130260
0.370470 0.306027 0.133310
0.394190 0.310003 0.136383
0.418086 0.313991 0.139480
0.442112 0.317989 0.142600
0.466223 0.321998 0.145744
0.490375 0.326017 0.148910
0.514522 0.330046 0.152099
0.538620 0.334085 0.155310
0.562624 0.338134 0.158543
0.586489 0.342192 0.161799
0.610170 0.346260 0.165076
0.633621 0.350336 0.168374
0.656800 0.354421 0.171693
0.679659 0.358514 0.175034
0.702155 0.362616 0.178395
0.724243 0.366725 0.181777
0.745877 0.370842 0.185178
0.767013 0.374967 0.188600
0.075364 0.278786 0.099364
0.091576 0.282679 0.102145
0.108611 0.286584 0.104952
0.126422 0.290503 0.107786
0.144966 0.294433 0.110646
0.164197 0.298376 0.113531
0.184070 0.302330 0.116441
0.204541 0.306296 0.119377
0.225565 0.310273 0.122338
0.247097 0.314261 0.125324
0.269091 0.318260 0.128334
0.291504 0.322270 0.131368
0.314289 0.326289 0.134426
0.337403 0.330319 0.137508
0.360801 0.334359 0.140613
0.384436 0.338409 0.143742
0.408266 0.342468 0.146894
0.432243 0.346536 0.150068
0.456325 0.350612 0.153265
0.480466 0.354698 0.156485
0.504620 0.358792 0.159726
0.528744 0.362894 0.162989
0.552792 0.367004 0.166274
0.576719 0.371121 0.169580
0.600481 0.375246 0.172907
0.624032 0.379378 0.176255
0.647328 0.383518 0.179624
0.670324 0.387663 0.183013
0.692974 0.391816 0.186422
0.715235 0.395974 0.189851
0.737060 0.400139 0.193299
0.758406 0.404309 0.196767
0.779227 0.408485 0.200255
0.084824 0.310543 0.108824
0.101527 0.314532 0.111693
0.119025 0.318531 0.114587
0.137274 0.322542 0.117507
0.156228 0.326562 0.120452
0.175843 0.330593 0.123422
0.196075 0.334633 0.126417
0.216877 0.338683 0.129435
0.238206 0.342743 0.132478
0.260016 0.346811 0.135545
0.282263 0.350889 0.138636
0.304901 0.354975 0.141750
0.327885 0.359069 0.144887
0.351172 0.363172 0.148047
0.374715 0.367282 0.151230
0.398470 0.371400 0.154435
0.422393 0.375526 0.157662
0.446437 0.379659 0.160911
0.470559 0.383798 0.164183
0.494714 0.387944 0.167475
0.518855 0.392097 0.170789
0.542940 0.396256 0.174124
0.566922 0.400421 0.177479
0.590757 0.404592 0.180855
0.614400 0.408768 0.184252
0.637806 0.412949 0.187668
0.660930 0.417135 0.191104
0.683728 0.421327 0.194560
0.706154 0.425522 0.198035
0.728163 0.429722 0.201529
0.749711 0.433926 0.205042
0.770753 0.438134 0.208573
0.791244 0.442345 0.212123
0.094577 0.343018 0.118577
0.111754 0.347087 0.121531
0.129700 0.351165 0.124509
0.148371 0.355252 0.127513
0.167720 0.359347 0.130540
0.187704 0.363450 0.133592
0.208278 0.367561 0.136668
0.229396 0.371680 0.139767
0.251015 0.375806 0.142889
0.273087 0.379939 0.146035
0.295570 0.384079 0.149203
0.318418 0.388226 0.152394
0.341586 0.392379 0.155607
0.365030 0.396538 0.158843
0.388703 0.400703 0.162100
0.412563 0.404874 0.165379
0.436563 0.409051 0.168679
0.460658 0.413233 0.172001
0.484805 0.417419 0.175343
0.508957 0.421611 0.178706
0.533070 0.425806 0.182089
0.557100 0.430007 0.185493
0.581001 0.434211 0.188917
0.604728 0.438419 0.192360
0.628237 0.442630 0.195823
0.651482 0.446845 0.199305
0.674419 0.451063 0.202805
0.697003 0.455283 0.206325
0.719188 0.459506 0.209863
0.740931 0.463732 0.213420
0.762186 0.467959 0.216994
0.782908 0.472189 0.220586
0.803053 0.476419 0.224196
0.104612 0.376085 0.128612
0.122248 0.380219 0.131649
0.140627 0.384359 0.134709
0.159704 0.388507 0.137793
0.179433 0.392660 0.140901
0.199771 0.396820 0.144032
0.220671 0.400986 0.147185
0.242089 0.405157 0.150362
0.263981 0.409334 0.153561
0.286301 0.413516 0.156782
0.309005 0.417703 0.160026
0.332047 0.421895 0.163291
0.355383 0.426091 0.166578
0.378968 0.430291 0.169886
0.402756 0.434496 0.173215
0.426704 0.438704 0.176565
0.450766 0.442915 0.179935
0.474897 0.447130 0.183326
0.499052 0.451348 0.186737
0.523187 0.455569 0.190168
0.547256 0.459792 0.193618
0.571215 0.464018 0.197088
0.595019 0.468246 0.200577
0.618623 0.472475 0.204085
0.641982 0.476706 0.207611
0.665050 0.480938 0.211156
0.687785 0.485172 0.214719
0.710139 0.489406 0.218300
0.732069 0.493641 0.221898
0.753529 0.497876 0.225514
0.774475 0.502112 0.229148
0.794862 0.506347 0.232798
0.814645 0.510582 0.236465
0.114922 0.409617 0.138922
0.133001 0.413799 0.142038
0.151797 0.417987 0.145177
0.171264 0.422179 0.148339
0.191358 0.426375 0.151524
0.212032 0.430576 0.154731
0.233244 0.434781 0.157961
0.254947 0.438989 0.161212
0.277097 0.443201 0.164485
0.299648 0.447416 0.167780
0.322557 0.451634 0.171095
0.345778 0.455855 0.174432
0.369266 0.460079 0.177790
0.392976 0.464304 0.181168
0.416864 0.468532 0.184566
0.440885 0.472762 0.187984
0.464993 0.476993 0.191422
0.489144 0.481225 0.194879
0.513292 0.485459 0.198356
0.537394 0.489693 0.201852
0.561404 0.493928 0.205366
0.585277 0.498163 0.208900
0.608968 0.502399 0.212451
0.632432 0.506634 0.216021
0.655626 0.510869 0.219608
0.678503 0.515103 0.223213
0.701018 0.519336 0.226835
0.723128 0.523569 0.230474
0.744786 0.527800 0.234131
0.765949 0.532029 0.237804
0.786570 0.536256 0.241493
0.806606 0.540482 0.245198
0.826012 0.544705 0.248919
0.125496 0.443486 0.149496
0.144004 0.447702 0.152689
0.163201 0.451920 0.155904
0.183043 0.456141 0.159142
0.203484 0.460365 0.162401
0.224481 0.464591 0.165682
0.245988 0.468818 0.168984
0.267960 0.473048 0.172308
0.290352 0.477279 0.175652
0.313120 0.481512 0.179017
0.336218 0.485745 0.182402
0.359602 0.489980 0.185808
0.383227 0.494215 0.189233
0.407047 0.498450 0.192678
0.431019 0.502685 0.196143
0.455096 0.506921 0.199627
0.479235 0.511156 0.203129
0.503390 0.515390 0.206651
0.527516 0.519623 0.210190
0.551569 0.523855 0.213748
0.575503 0.528086 0.217324
0.599275 0.532315 0.220918
0.622838 0.536543 0.224530
0.646148 0.540768 0.228158
0.669160 0.544991 0.231804
0.691829 0.549211 0.235466
0.714110 0.553429 0.239145
0.735959 0.557643 0.242840
0.757331 0.561855 0.246551
0.778180 0.566062 0.250278
0.798461 0.570266 0.254021
0.818131 0.574466 0.257779
0.837143 0.578662 0.261552
0.136326 0.477566 0.160326
0.155246 0.481799 0.163593
0.174828 0.486032 0.166882
0.195030 0.490267 0.170192
0.215804 0.494502 0.173523
0.237107 0.498737 0.176875
0.258894 0.502972 0.180247
0.281119 0.507208 0.183640
0.303738 0.511442 0.187053
0.326706 0.515676 0.190485
0.349978 0.519910 0.193937
0.373510 0.524142 0.197409
0.397255 0.528373 0.200900
0.421170 0.532602 0.204409
0.445210 0.536829 0.207937
0.469329 0.541054 0.211484
0.493482 0.545277 0.215048
0.517626 0.549497 0.218631
0.541714 0.553714 0.222231
0.565703 0.557929 0.225849
0.589547 0.562140 0.229483
0.613200 0.566347 0.233135
0.636620 0.570551 0.236803
0.659759 0.574750 0.240488
0.682575 0.578946 0.244189
0.705021 0.583136 0.247906
0.727052 0.587322 0.251639
0.748625 0.591503 0.255387
0.769694 0.595679 0.259150
0.790213 0.599849 0.262929
0.810139 0.604014 0.266722
0.829427 0.608173 0.270530
0.848031 0.612325 0.274352
0.147402 0.511729 0.171402
0.166718 0.515963 0.174741
0.186671 0.520196 0.178100
0.207216 0.524428 0.181480
0.228308 0.528659 0.184880
0.249901 0.532888 0.188300
0.271952 0.537115 0.191740
0.294415 0.541340 0.195199
0.317246 0.545563 0.198678
0.340398 0.549783 0.202175
0.363829 0.554000 0.205691
0.387492 0.558214 0.209226
0.411343 0.562425 0.212779
0.435337 0.566632 0.216351
0.459428 0.570835 0.219939
0.483573 0.575035 0.223546
0.507727 0.579230 0.227170
0.531843 0.583420 0.230811
0.555878 0.587606 0.234469
0.579786 0.591786 0.238143
0.603524 0.595962 0.241834
0.627044 0.600132 0.245541
0.650304 0.604296 0.249263
0.673258 0.608454 0.253002
0.695861 0.612606 0.256755
0.718068 0.616751 0.260524
0.739834 0.620890 0.264308
0.761115 0.625022 0.268107
0.781866 0.629146 0.271919
0.802041 0.633263 0.275746
0.821595 0.637373 0.279587
0.840485 0.641474 0.283442
0.858665 0.645568 0.287310
0.158715 0.545849 0.182715
0.178413 0.550069 0.186123
0.198720 0.554285 0.189550
0.219593 0.558499 0.192997
0.240986 0.562710 0.196463
0.262855 0.566917 0.199949
0.285154 0.571120 0.203453
0.307839 0.575319 0.206976
0.330865 0.579514 0.210518
0.354187 0.583704 0.214077
0.377760 0.587889 0.217655
0.401540 0.592069 0.221250
0.425480 0.596244 0.224863
0.449537 0.600414 0.228493
0.473666 0.604578 0.232141
0.497821 0.608735 0.235804
0.521958 0.612887 0.239485
0.546032 0.617032 0.243181
0.569998 0.621170 0.246894
0.593810 0.625301 0.250623
0.617425 0.629425 0.254367
0.640798 0.633542 0.258126
0.663882 0.637651 0.261900
0.686635 0.641752 0.265689
0.709010 0.645845 0.269493
0.730962 0.649929 0.273311
0.752448 0.654005 0.277143
0.773421 0.658071 0.280989
0.793838 0.662129 0.284849
0.813652 0.666177 0.288722
0.832820 0.670216 0.292608
0.851296 0.674244 0.296507
0.869036 0.678263 0.300418
0.170257 0.579798 0.194257
0.190319 0.583987 0.197730
0.210965 0.588172 0.201222
0.232151 0.592352 0.204734
0.253830 0.596527 0.208263
0.275958 0.600696 0.211812
0.298490 0.604859 0.215378
0.321382 0.609017 0.218962
0.344588 0.613168 0.222564
0.368063 0.617312 0.226183
0.391763 0.621450 0.229819
0.415643 0.625581 0.233473
0.439658 0.629704 0.237142
0.463763 0.633821 0.240829
0.487912 0.637929 0.244531
0.512062 0.642029 0.248250
0.536167 0.646121 0.251984
0.560183 0.650205 0.255733
0.584064 0.654280 0.259498
0.607765 0.658346 0.263278
0.631243 0.662403 0.267072
0.654451 0.666451 0.270881
0.677345 0.670489 0.274705
0.699880 0.674517 0.278542
0.722011 0.678535 0.282393
0.743694 0.682542 0.286257
0.764883 0.686539 0.290135
0.785533 0.690525 0.294026
0.805600 0.694500 0.297929
0.825039 0.698463 0.301846
0.843804 0.702415 0.305774
0.861851 0.706356 0.309715
0.879136 0.710284 0.313667
0.182016 0.613449 0.206016
0.202429 0.617593 0.209553
0.223398 0.621730 0.213108
0.244880 0.625860 0.216681
0.266830 0.629983 0.220271
0.289201 0.634099 0.223879
0.311951 0.638207 0.227505
0.335034 0.642307 0.231147
0.358404 0.646398 0.234807
0.382017 0.650482 0.238483
0.405829 0.654556 0.242175
0.429794 0.658622 0.245883
0.453867 0.662678 0.249607
0.478004 0.666725 0.253347
0.502159 0.670762 0.257102
0.526288 0.674789 0.260873
0.550346 0.678806 0.264658
0.574287 0.682813 0.268457
0.598068 0.686809 0.272272
0.621643 0.690795 0.276100
0.644967 0.694769 0.279942
0.667995 0.698732 0.283798
0.690683 0.702683 0.287667
0.712985 0.706622 0.291550
0.734857 0.710549 0.295446
0.756254 0.714464 0.299354
0.777130 0.718366 0.303274
0.797442 0.722256 0.307207
0.817144 0.726132 0.311152
0.836191 0.729995 0.315109
0.854538 0.733845 0.319077
0.872141 0.737681 0.323056
0.888954 0.741503 0.327046
0.193986 0.646675 0.217986
0.214732 0.650758 0.221583
0.236009 0.654832 0.225197
0.257772 0.658897 0.228829
0.279976 0.662952 0.232478
0.302577 0.666999 0.236143
0.325528 0.671035 0.239825
0.348786 0.675062 0.243523
0.372305 0.679078 0.247237
0.396041 0.683084 0.250967
0.419948 0.687080 0.254712
0.443982 0.691064 0.258473
0.468098 0.695038 0.262249
0.492251 0.698999 0.266039
0.516396 0.702950 0.269844
0.540489 0.706888 0.273664
0.564483 0.710815 0.277497
0.588336 0.714729 0.281344
0.612000 0.718630 0.285205
0.635432 0.722519 0.289079
0.658587 0.726394 0.292967
0.681420 0.730257 0.296867
0.703886 0.734105 0.300780
0.725940 0.737940 0.304705
0.747537 0.741761 0.308642
0.768633 0.745568 0.312591
0.789182 0.749360 0.316552
0.809139 0.753137 0.320524
0.828460 0.756899 0.324508
0.847100 0.760646 0.328502
0.865013 0.764378 0.332507
0.882156 0.768093 0.336522
0.898483 0.771793 0.340548
0.206155 0.679350 0.230155
0.227220 0.683355 0.233810
0.248789 0.687350 0.237482
0.270818 0.691334 0.241169
0.293261 0.695306 0.244873
0.316074 0.699267 0.248593
0.339211 0.703217 0.252329
0.362629 0.707155 0.256080
0.386281 0.711080 0.259846
0.410124 0.714993 0.263627
0.434111 0.718894 0.267423
0.458199 0.722782 0.271233
0.482342 0.726656 0.275058
0.506496 0.730518 0.278896
0.530616 0.734366 0.282748
0.554656 0.738199 0.286614
0.578572 0.742019 0.290493
0.602319 0.745825 0.294385
0.625852 0.749616 0.298290
0.649126 0.753392 0.302207
0.672096 0.757153 0.306137
0.694718 0.760899 0.310078
0.716947 0.764630 0.314032
0.738736 0.768344 0.317997
0.760043 0.772043 0.321973
0.780822 0.775726 0.325960
0.801027 0.779392 0.329959
0.820615 0.783041 0.333967
0.839539 0.786673 0.337987
0.857756 0.790288 0.342016
0.875220 0.793886 0.346055
0.891887 0.797466 0.350104
0.907711 0.801028 0.354162
0.218516 0.711346 0.242516
0.239884 0.715258 0.246226
0.261729 0.719158 0.249951
0.284008 0.723045 0.253693
0.306674 0.726918 0.257449
0.329684 0.730779 0.261221
0.352992 0.734626 0.265007
0.376554 0.738459 0.268808
0.400323 0.742278 0.272624
0.424257 0.746082 0.276454
0.448309 0.749872 0.280297
0.472435 0.753647 0.284154
0.496590 0.757408 0.288025
0.520729 0.761152 0.291909
0.544807 0.764882 0.295805
0.568779 0.768595 0.299715
0.592601 0.772293 0.303636
0.616227 0.775974 0.307570
0.639613 0.779639 0.311516
0.662714 0.783287 0.315474
0.685484 0.786919 0.319443
0.707879 0.790532 0.323423
0.729854 0.794129 0.327415
0.751365 0.797708 0.331417
0.772365 0.801269 0.335429
0.792811 0.804811 0.339452
0.812658 0.808335 0.343485
0.831859 0.811841 0.347528
0.850372 0.815327 0.351580
0.868151 0.818795 0.355642
0.885150 0.822243 0.359712
0.901325 0.825671 0.363791
0.916632 0.829080 0.367879
0.231059 0.742536 0.255059
0.252714 0.746339 0.258821
0.274820 0.750128 0.262598
0.297333 0.753903 0.266390
0.320207 0.757662 0.270196
0.343398 0.761406 0.274017
0.366861 0.765134 0.277851
0.390551 0.768846 0.281700
0.414423 0.772543 0.285562
0.438432 0.776223 0.289437
0.462533 0.779887 0.293326
0.486681 0.783534 0.297227
0.510832 0.787164 0.301141
0.534941 0.790777 0.305067
0.558962 0.794372 0.309006
0.582851 0.797949 0.312956
0.606563 0.801509 0.316918
0.630052 0.805050 0.320891
0.653275 0.808573 0.324875
0.676187 0.812078 0.328871
0.698741 0.815563 0.332877
0.720894 0.819029 0.336893
0.742600 0.822476 0.340919
0.763815 0.825903 0.344956
0.784494 0.829310 0.349002
0.804592 0.832697 0.353058
0.824064 0.836064 0.357122
