luts/cine_film_warm.cube
TITLE "Cinematic Warm Film"
# generated procedurally for DLSSNRExport
LUT_3D_SIZE 9
0.030117 0.030015 0.029869
0.540048 0.035699 0.035092
0.725650 0.037765 0.037023
0.821545 0.038832 0.038026
0.880093 0.039483 0.038641
0.919550 0.039922 0.039056
0.947944 0.040238 0.039355
0.969354 0.040476 0.039580
0.986076 0.040662 0.039757
0.049695 0.546276 0.047638
0.568327 0.552095 0.053338
0.754220 0.554128 0.055406
0.849681 0.555162 0.056474
0.907770 0.555787 0.057125
0.946836 0.556206 0.057564
0.974907 0.556507 0.057880
0.996051 0.556733 0.058118
1.000000 0.556909 0.058303
0.056452 0.731656 0.054326
0.573433 0.737139 0.060132
0.757716 0.739023 0.062227
0.852140 0.739973 0.063306
0.909527 0.740546 0.063963
0.948090 0.740929 0.064406
0.975785 0.741202 0.064724
0.996638 0.741408 0.064963
1.000000 0.741568 0.065151
0.059867 0.826880 0.057825
0.575016 0.832110 0.063673
0.758118 0.833889 0.065776
0.851826 0.834782 0.066858
0.908741 0.835319 0.067517
0.946971 0.835677 0.067960
0.974419 0.835933 0.068279
0.995081 0.836125 0.068519
1.000000 0.836274 0.068706
0.061926 0.884827 0.059976
0.575631 0.889877 0.065844
0.757895 0.891581 0.067951
0.851107 0.892435 0.069034
0.907698 0.892947 0.069693
0.945700 0.893288 0.070137
0.972980 0.893531 0.070456
0.993513 0.893714 0.070696
1.000000 0.893856 0.070883
0.063303 0.923796 0.061431
0.575896 0.928714 0.067311
0.757547 0.930364 0.069420
0.850399 0.931189 0.070504
0.906755 0.931683 0.071163
0.944594 0.932012 0.071606
0.971752 0.932246 0.071925
0.992192 0.932422 0.072165
1.000000 0.932559 0.072353
0.064289 0.951797 0.062481
0.576012 0.956613 0.068369
0.757197 0.958224 0.070479
0.849777 0.959026 0.071563
0.905957 0.959507 0.072222
0.943673 0.959826 0.072665
0.970740 0.960054 0.072984
0.991110 0.960225 0.073224
1.000000 0.960357 0.073411
0.065029 0.972888 0.063275
0.576059 0.977625 0.069168
0.756878 0.979204 0.071278
0.849246 0.979990 0.072362
0.905289 0.980459 0.073021
0.942909 0.980772 0.073464
0.969906 0.980994 0.073783
0.990222 0.981161 0.074023
1.000000 0.981290 0.074210
0.065605 0.989346 0.063895
0.576071 0.994020 0.069792
0.756597 0.995573 0.071903
0.848795 0.996345 0.072987
0.904729 0.996806 0.073646
0.942272 0.997112 0.074089
0.969213 0.997331 0.074407
0.989486 0.997494 0.074647
1.000000 0.997621 0.074834
0.032118 0.031896 0.522101
0.543788 0.037571 0.520730
0.729730 0.039632 0.520767
0.825742 0.040696 0.520894
0.884341 0.041346 0.521007
0.923825 0.041783 0.521099
0.952234 0.042098 0.521172
0.973653 0.042335 0.521231
0.990380 0.042521 0.521280
0.051529 0.548136 0.525403
0.569952 0.553880 0.531068
0.755485 0.555885 0.533599
0.850703 0.556904 0.535002
0.908624 0.557520 0.535890
0.947569 0.557933 0.536502
0.975548 0.558229 0.536949
0.996622 0.558451 0.537290
1.000000 0.558625 0.537559
0.058243 0.733417 0.532297
0.574315 0.738800 0.540424
0.757987 0.740647 0.543826
0.852039 0.741579 0.545675
0.909179 0.742140 0.546834
0.947568 0.742515 0.547628
0.975133 0.742783 0.548206
0.995886 0.742984 0.548645
1.000000 0.743141 0.548991
0.061639 0.828570 0.537014
0.575518 0.833689 0.546393
0.757881 0.835427 0.550239
0.851150 0.836298 0.552315
0.907778 0.836822 0.553612
0.945807 0.837171 0.554499
0.973105 0.837421 0.555143
0.993653 0.837608 0.555633
1.000000 0.837753 0.556017
0.063688 0.886468 0.540276
0.575904 0.891399 0.550415
0.757350 0.893060 0.554529
0.850082 0.893891 0.556743
0.906361 0.894389 0.558124
0.944146 0.894720 0.559067
0.971264 0.894957 0.559751
0.991673 0.895134 0.560271
1.000000 0.895272 0.560679
0.065058 0.925401 0.542638
0.576015 0.930195 0.553286
0.756794 0.931801 0.557581
0.849139 0.932601 0.559886
0.905167 0.933081 0.561323
0.942776 0.933400 0.562304
0.969766 0.933627 0.563016
0.990076 0.933798 0.563556
1.000000 0.933930 0.563980
0.066039 0.953375 0.544418
0.576020 0.958065 0.555432
0.756295 0.959628 0.559856
0.848349 0.960406 0.562228
0.904189 0.960872 0.563705
0.941667 0.961181 0.564712
0.968560 0.961402 0.565444
0.988796 0.961567 0.565998
1.000000 0.961695 0.566434
0.066776 0.974445 0.545806
0.575984 0.979053 0.557094
0.755864 0.980583 0.561615
0.847691 0.981344 0.564037
0.903385 0.981799 0.565544
0.940762 0.982101 0.566572
0.967580 0.982316 0.567318
0.987758 0.982477 0.567884
1.000000 0.982602 0.568328
0.067349 0.990886 0.546916
0.575930 0.995428 0.558418
0.755496 0.996932 0.563016
0.847141 0.997679 0.565476
0.902719 0.998125 0.567007
0.940014 0.998421 0.568051
0.966772 0.998632 0.568808
0.986905 0.998789 0.569382
1.000000 0.998912 0.569833
0.032829 0.032566 0.697559
0.545076 0.038238 0.694144
0.731123 0.040298 0.693618
0.827168 0.041361 0.693490
0.885781 0.042010 0.693459
0.925270 0.042447 0.693459
0.953681 0.042762 0.693469
0.975102 0.042999 0.693481
0.991830 0.043184 0.693495
0.052184 0.548797 0.696758
0.570484 0.554515 0.702735
0.755871 0.556510 0.705547
0.850993 0.557524 0.707130
0.908849 0.558137 0.708140
0.947746 0.558547 0.708839
0.975690 0.558842 0.709351
0.996736 0.559063 0.709742
1.000000 0.559235 0.710050
0.058884 0.734041 0.704117
0.574582 0.739390 0.713401
0.758018 0.741224 0.717388
0.851927 0.742149 0.719573
0.908974 0.742706 0.720949
0.947297 0.743078 0.721894
0.974813 0.743344 0.722583
0.995528 0.743544 0.723107
1.000000 0.743699 0.723520
0.062273 0.829169 0.709472
0.575650 0.834249 0.720443
0.757730 0.835972 0.725031
0.850833 0.836836 0.727523
0.907352 0.837355 0.729086
0.945305 0.837702 0.730157
0.972548 0.837949 0.730936
0.993052 0.838134 0.731528
1.000000 0.838278 0.731994
0.064319 0.887049 0.713256
0.575953 0.891939 0.725252
0.757089 0.893584 0.730203
0.849640 0.894407 0.732883
0.905802 0.894900 0.734559
0.943504 0.895228 0.735706
0.970562 0.895462 0.736540
0.990925 0.895638 0.737173
1.000000 0.895774 0.737671
0.065687 0.925970 0.716026
0.576009 0.930720 0.728710
0.756459 0.932309 0.733905
0.848613 0.933102 0.736710
0.904518 0.933576 0.738462
0.942041 0.933891 0.739660
0.968967 0.934116 0.740531
0.989229 0.934285 0.741192
1.000000 0.934416 0.741711
0.066667 0.953933 0.718129
0.575975 0.958578 0.731305
0.755907 0.960125 0.736676
0.847763 0.960895 0.739571
0.903475 0.961355 0.741378
0.940865 0.961661 0.742612
0.967692 0.961879 0.743510
0.987878 0.962042 0.744191
1.000000 0.962169 0.744726
0.067402 0.974996 0.719774
0.575909 0.979558 0.733322
0.755436 0.981072 0.738825
0.847060 0.981824 0.741787
0.902623 0.982273 0.743635
0.939909 0.982571 0.744898
0.966659 0.982784 0.745815
0.986787 0.982943 0.746511
1.000000 0.983066 0.747057
0.067975 0.991430 0.721095
0.575833 0.995926 0.734933
0.755036 0.997413 0.740539
0.846474 0.998151 0.743554
0.901918 0.998591 0.745434
0.939121 0.998884 0.746718
0.965811 0.999092 0.747650
0.985892 0.999248 0.748358
1.000000 0.999369 0.748914
0.033194 0.032910 0.787605
0.545727 0.038581 0.783205
0.731825 0.040640 0.782413
0.827885 0.041703 0.782166
0.886503 0.042352 0.782069
0.925995 0.042789 0.782027
0.954408 0.043103 0.782007
0.975829 0.043340 0.781999
0.992556 0.043525 0.781996
0.052520 0.549136 0.784917
0.570747 0.554840 0.791121
0.756056 0.556831 0.794102
0.851127 0.557841 0.795790
0.908948 0.558453 0.796870
0.947820 0.558862 0.797618
0.975746 0.559156 0.798168
0.996777 0.559377 0.798587
1.000000 0.559548 0.798919
0.059213 0.734361 0.792597
0.574709 0.739693 0.802542
0.758021 0.741520 0.806854
0.851854 0.742441 0.809225
0.908852 0.742996 0.810720
0.947140 0.743367 0.811748
0.974630 0.743632 0.812497
0.995326 0.743831 0.813068
1.000000 0.743985 0.813517
0.062600 0.829476 0.798321
0.575708 0.834536 0.810178
0.757639 0.836252 0.815171
0.850654 0.837112 0.817891
0.907117 0.837629 0.819598
0.945030 0.837973 0.820768
0.972243 0.838219 0.821620
0.992725 0.838404 0.822268
1.000000 0.838547 0.822777
0.064644 0.887347 0.802400
0.575969 0.892215 0.815417
0.756941 0.893853 0.820823
0.849398 0.894671 0.823754
0.905498 0.895161 0.825590
0.943158 0.895488 0.826847
0.970184 0.895721 0.827761
0.990523 0.895896 0.828456
1.000000 0.896032 0.829002
0.066011 0.926260 0.805397
0.575996 0.930989 0.819194
0.756273 0.932570 0.824877
0.848327 0.933358 0.827950
0.904168 0.933829 0.829872
0.941646 0.934143 0.831187
0.968539 0.934367 0.832143
0.988776 0.934534 0.832870
1.000000 0.934665 0.833440
0.066990 0.954219 0.807677
0.575942 0.958841 0.822033
0.755694 0.960380 0.827916
0.847446 0.961145 0.831091
0.903092 0.961602 0.833075
0.940435 0.961906 0.834432
0.967228 0.962123 0.835418
0.987388 0.962285 0.836167
1.000000 0.962411 0.836755
0.067725 0.975278 0.809464
0.575861 0.979816 0.824242
0.755202 0.981321 0.830274
0.846720 0.982069 0.833526
0.902215 0.982515 0.835557
0.939453 0.982812 0.836945
0.966169 0.983023 0.837954
0.986269 0.983181 0.838720
1.000000 0.983304 0.839321
0.068297 0.991709 0.810901
0.575772 0.996181 0.826007
0.754786 0.997659 0.832156
0.846116 0.998393 0.835468
0.901491 0.998830 0.837536
0.938645 0.999121 0.838948
0.965299 0.999327 0.839975
0.985353 0.999482 0.840754
1.000000 0.999602 0.841365
0.033415 0.033119 0.842400
0.546120 0.038789 0.837422
0.732248 0.040848 0.836476
0.828317 0.041911 0.836161
0.886938 0.042559 0.836026
0.926431 0.042996 0.835959
0.954844 0.043310 0.835923
0.976265 0.043547 0.835903
0.992992 0.043732 0.835891
0.052725 0.549342 0.838637
0.570904 0.555038 0.845001
0.756164 0.557025 0.848094
0.851203 0.558035 0.849850
0.909002 0.558645 0.850975
0.947859 0.559054 0.851755
0.975773 0.559347 0.852328
0.996796 0.559567 0.852766
1.000000 0.559739 0.853112
0.059413 0.734556 0.846539
0.574783 0.739876 0.856909
0.758017 0.741700 0.861428
0.851805 0.742619 0.863916
0.908772 0.743172 0.865486
0.947038 0.743542 0.866565
0.974513 0.743807 0.867353
0.995196 0.744005 0.867953
1.000000 0.744159 0.868425
0.062798 0.829663 0.852503
0.575740 0.834711 0.864922
0.757579 0.836422 0.870170
0.850541 0.837280 0.873031
0.906968 0.837795 0.874828
0.944857 0.838138 0.876061
0.972052 0.838384 0.876959
0.992520 0.838568 0.877642
1.000000 0.838711 0.878179
0.064841 0.887527 0.856768
0.575975 0.892383 0.870431
0.756847 0.894016 0.876122
0.849245 0.894832 0.879211
0.905307 0.895321 0.881146
0.942940 0.895646 0.882472
0.969947 0.895878 0.883436
0.990271 0.896053 0.884169
1.000000 0.896188 0.884745
0.066208 0.926437 0.859909
0.575985 0.931152 0.874407
0.756155 0.932728 0.880396
0.848148 0.933514 0.883637
0.903949 0.933984 0.885665
0.941400 0.934296 0.887053
0.968272 0.934519 0.888062
0.988493 0.934686 0.888829
1.000000 0.934816 0.889431
0.067186 0.954393 0.862302
0.575919 0.959001 0.877400
0.755559 0.960534 0.883601
0.847248 0.961297 0.886952
0.902853 0.961753 0.889047
0.940167 0.962055 0.890479
0.966939 0.962271 0.891521
0.987083 0.962433 0.892312
1.000000 0.962558 0.892933
0.067921 0.975449 0.864179
0.575828 0.979973 0.879728
0.755055 0.981473 0.886091
0.846508 0.982218 0.889524
0.901961 0.982663 0.891669
0.939169 0.982958 0.893135
0.965864 0.983168 0.894201
0.985948 0.983326 0.895010
1.000000 0.983448 0.895646
0.068494 0.991878 0.865688
0.575733 0.996336 0.881590
0.754630 0.997809 0.888078
0.845893 0.998539 0.891575
0.901225 0.998975 0.893759
0.938349 0.999265 0.895252
0.964981 0.999471 0.896337
0.985018 0.999625 0.897160
1.000000 0.999744 0.897807
0.033564 0.033260 0.879256
0.546383 0.038930 0.873898
0.732531 0.040988 0.872852
0.828605 0.042051 0.872492
0.887228 0.042699 0.872333
0.926722 0.043136 0.872251
0.955135 0.043450 0.872204
0.976556 0.043687 0.872176
0.993283 0.043872 0.872159
0.052863 0.549481 0.874802
0.571009 0.555171 0.881283
0.756235 0.557157 0.884453
0.851252 0.558165 0.886257
0.909037 0.558775 0.887413
0.947883 0.559183 0.888216
0.975789 0.559476 0.888806
0.996805 0.559696 0.889256
1.000000 0.559867 0.889612
0.059548 0.734687 0.882864
0.574832 0.740000 0.893530
0.758013 0.741821 0.898191
0.851769 0.742739 0.900759
0.908715 0.743291 0.902381
0.946968 0.743660 0.903496
0.974431 0.743924 0.904310
0.995106 0.744122 0.904931
1.000000 0.744276 0.905419
0.062932 0.829788 0.888995
0.575760 0.834828 0.901801
0.757536 0.836536 0.907225
0.850462 0.837392 0.910184
0.906866 0.837906 0.912043
0.944738 0.838249 0.913318
0.971920 0.838494 0.914247
0.992379 0.838678 0.914954
1.000000 0.838821 0.915509
0.064974 0.887649 0.893390
0.575978 0.892496 0.907497
0.756781 0.894125 0.913383
0.849140 0.894940 0.916579
0.905177 0.895427 0.918583
0.942792 0.895752 0.919955
0.969786 0.895984 0.920954
0.990099 0.896158 0.921713
1.000000 0.896293 0.922310
0.066341 0.926556 0.896630
0.575977 0.931262 0.911610
0.756074 0.932834 0.917807
0.848025 0.933618 0.921163
0.903799 0.934087 0.923264
0.941231 0.934399 0.924701
0.968090 0.934621 0.925747
0.988301 0.934788 0.926541
1.000000 0.934917 0.927166
0.067319 0.954510 0.899100
0.575902 0.959108 0.914707
0.755467 0.960638 0.921127
0.847113 0.961399 0.924597
0.902690 0.961854 0.926768
0.939985 0.962156 0.928252
0.966743 0.962371 0.929331
0.986876 0.962532 0.930151
1.000000 0.962657 0.930795
0.068054 0.975564 0.901039
0.575805 0.980079 0.917117
0.754955 0.981575 0.923706
0.846363 0.982318 0.927262
0.901787 0.982762 0.929485
0.938976 0.983056 0.931005
0.965656 0.983266 0.932109
0.985729 0.983423 0.932948
1.000000 0.983545 0.933607
0.068626 0.991992 0.902599
0.575704 0.996440 0.919045
0.754522 0.997909 0.925765
0.845741 0.998638 0.929389
0.901043 0.999073 0.931652
0.938147 0.999361 0.933199
0.964765 0.999567 0.934324
0.984791 0.999720 0.935178
1.000000 0.999840 0.935848
0.033671 0.033361 0.905743
0.546572 0.039030 0.900117
0.732733 0.041089 0.899000
0.828811 0.042151 0.898610
0.887436 0.042799 0.898434
0.926930 0.043236 0.898341
0.955343 0.043550 0.898287
0.976764 0.043787 0.898254
0.993491 0.043972 0.898232
0.052962 0.549580 0.900807
0.571083 0.555267 0.907378
0.756285 0.557251 0.910606
0.851287 0.558258 0.912445
0.909060 0.558867 0.913625
0.947899 0.559276 0.914444
0.975799 0.559568 0.915045
0.996811 0.559788 0.915505
1.000000 0.559959 0.915869
0.059645 0.734781 0.908991
0.574866 0.740089 0.919875
0.758010 0.741908 0.924640
0.851743 0.742824 0.927267
0.908674 0.743376 0.928926
0.946916 0.743745 0.930067
0.974372 0.744009 0.930901
0.995040 0.744207 0.931535
1.000000 0.744361 0.932035
0.063028 0.829878 0.915245
0.575773 0.834912 0.928335
0.757505 0.836618 0.933886
0.850404 0.837473 0.936916
0.906791 0.837987 0.938820
0.944651 0.838329 0.940127
0.971825 0.838574 0.941078
0.992277 0.838757 0.941802
1.000000 0.838900 0.942372
0.065070 0.887736 0.919736
0.575979 0.892577 0.934166
0.756733 0.894204 0.940194
0.849063 0.895017 0.943469
0.905081 0.895504 0.945522
0.942684 0.895829 0.946929
0.969668 0.896060 0.947952
0.989975 0.896234 0.948730
1.000000 0.896368 0.949342
0.066436 0.926641 0.923048
0.575970 0.931341 0.938379
0.756015 0.932911 0.944728
0.847936 0.933693 0.948167
0.903691 0.934161 0.950320
0.941109 0.934473 0.951794
0.967958 0.934695 0.952866
0.988161 0.934861 0.953681
1.000000 0.934990 0.954321
0.067414 0.954594 0.925575
0.575889 0.959185 0.941552
0.755400 0.960713 0.948131
0.847014 0.961472 0.951688
0.902571 0.961926 0.953913
0.939852 0.962228 0.955435
0.966600 0.962443 0.956542
0.986725 0.962604 0.957383
1.000000 0.962729 0.958043
0.068149 0.975647 0.927558
0.575787 0.980155 0.944022
0.754881 0.981649 0.950774
0.846258 0.982390 0.954421
0.901661 0.982833 0.956700
0.938836 0.983127 0.958258
0.965505 0.983336 0.959391
0.985571 0.983493 0.960252
1.000000 0.983615 0.960927
0.068721 0.992074 0.929155
0.575683 0.996515 0.945998
0.754444 0.997982 0.952885
0.845630 0.998709 0.956601
0.900912 0.999143 0.958922
0.938001 0.999431 0.960509
0.964608 0.999636 0.961663
0.984626 0.999789 0.962538
1.000000 0.999908 0.963226
0.033752 0.033437 0.925698
0.546713 0.039106 0.919872
0.732885 0.041165 0.918703
0.828966 0.042227 0.918290
0.887591 0.042875 0.918101
0.927086 0.043312 0.918000
0.955499 0.043626 0.917941
0.976920 0.043863 0.917904
0.993646 0.044048 0.917879
0.053036 0.549655 0.920408
0.571139 0.555339 0.927048
0.756322 0.557322 0.930321
0.851312 0.558329 0.932187
0.909078 0.558937 0.933384
0.947911 0.559345 0.934216
0.975806 0.559638 0.934827
0.996815 0.559857 0.935294
1.000000 0.560028 0.935663
0.059718 0.734851 0.928686
0.574891 0.740156 0.939737
0.758006 0.741973 0.944581
0.851722 0.742889 0.947253
0.908642 0.743440 0.948940
0.946876 0.743809 0.950102
0.974326 0.744072 0.950949
0.994990 0.744270 0.951595
1.000000 0.744424 0.952104
0.063101 0.829946 0.935034
0.575783 0.834976 0.948341
0.757481 0.836680 0.953989
0.850360 0.837534 0.957073
0.906734 0.838047 0.959011
0.944585 0.838389 0.960341
0.971752 0.838633 0.961310
0.992199 0.838817 0.962048
1.000000 0.838959 0.962627
0.065142 0.887802 0.939598
0.575980 0.892638 0.954275
0.756696 0.894263 0.960411
0.849005 0.895076 0.963745
0.905009 0.895562 0.965836
0.942602 0.895886 0.967269
0.969579 0.896117 0.968311
0.989880 0.896291 0.969104
1.000000 0.896425 0.969727
0.066508 0.926706 0.942966
0.575964 0.931400 0.958563
0.755970 0.932968 0.965028
0.847868 0.933750 0.968530
0.903608 0.934217 0.970723
0.941016 0.934528 0.972225
0.967858 0.934750 0.973317
0.988055 0.934916 0.974147
1.000000 0.935045 0.974799
0.067486 0.954657 0.945535
0.575879 0.959244 0.961794
0.755348 0.960769 0.968494
0.846939 0.961528 0.972117
0.902481 0.961981 0.974384
0.939752 0.962282 0.975935
0.966492 0.962497 0.977062
0.986611 0.962657 0.977919
1.000000 0.962782 0.978592
0.068221 0.975709 0.947553
0.575774 0.980212 0.964310
0.754826 0.981704 0.971187
0.846178 0.982444 0.974901
0.901566 0.982886 0.977223
0.938730 0.983180 0.978811
0.965391 0.983389 0.979965
0.985450 0.983546 0.980842
1.000000 0.983667 0.981531
0.068793 0.992135 0.949177
0.575667 0.996571 0.966322
0.754385 0.998036 0.973337
0.845546 0.998762 0.977123
0.900812 0.999195 0.979488
0.937890 0.999483 0.981105
0.964489 0.999688 0.982280
0.984501 0.999841 0.983172
1.000000 0.999960 0.983873
0.033814 0.033496 0.941271
0.546824 0.039166 0.935291
0.733003 0.041224 0.934082
0.829086 0.042286 0.933652
0.887712 0.042934 0.933453
0.927207 0.043371 0.933346
0.955620 0.043685 0.933283
0.977041 0.043922 0.933243
0.993768 0.044107 0.933216
0.053095 0.549714 0.935710
0.571182 0.555395 0.942407
0.756351 0.557377 0.945715
0.851331 0.558383 0.947602
0.909090 0.558992 0.948813
0.947919 0.559400 0.949655
0.975811 0.559692 0.950273
0.996817 0.559911 0.950746
1.000000 0.560083 0.951119
0.059776 0.734907 0.944064
0.574911 0.740208 0.955246
0.758003 0.742024 0.960153
0.851706 0.742939 0.962860
0.908617 0.743491 0.964570
0.946844 0.743859 0.965747
0.974290 0.744122 0.966606
0.994950 0.744320 0.967261
1.000000 0.744473 0.967776
0.063157 0.829999 0.950487
0.575791 0.835025 0.963964
0.757462 0.836728 0.969688
0.850325 0.837582 0.972815
0.906689 0.838094 0.974780
0.944533 0.838436 0.976129
0.971695 0.838680 0.977111
0.992138 0.838863 0.977859
1.000000 0.839005 0.978447
0.065199 0.887853 0.955108
0.575980 0.892686 0.969979
0.756667 0.894310 0.976200
0.848959 0.895121 0.979581
0.904952 0.895607 0.981701
0.942537 0.895931 0.983154
0.969509 0.896162 0.984212
0.989805 0.896335 0.985016
1.000000 0.896469 0.985647
0.066564 0.926756 0.958520
0.575959 0.931446 0.974327
0.755934 0.933013 0.980882
0.847815 0.933794 0.984434
0.903543 0.934261 0.986659
0.940944 0.934572 0.988182
0.967779 0.934793 0.989290
0.987972 0.934959 0.990131
1.000000 0.935088 0.990793
0.067542 0.954706 0.961123
0.575871 0.959289 0.977603
0.755308 0.960813 0.984397
0.846881 0.961571 0.988073
0.902411 0.962023 0.990372
0.939673 0.962324 0.991945
0.966407 0.962539 0.993089
0.986522 0.962699 0.993958
1.000000 0.962824 0.994641
0.068277 0.975757 0.963168
0.575763 0.980256 0.980154
0.754782 0.981747 0.987129
0.846115 0.982487 0.990897
0.901491 0.982928 0.993253
0.938646 0.983221 0.994864
0.965302 0.983430 0.996035
0.985356 0.983587 0.996924
1.000000 0.983708 0.997623
0.068848 0.992183 0.964814
0.575654 0.996615 0.982195
0.754338 0.998078 0.989311
0.845480 0.998804 0.993151
0.900734 0.999237 0.995550
0.937804 0.999524 0.997191
0.964396 0.999728 0.998383
0.984403 0.999881 0.999289
1.000000 1.000000 1.000000
