luts/cine_bleach_bypass.cube
TITLE "Cinematic Bleach Bypass"
# generated procedurally for DLSSNRExport
LUT_3D_SIZE 9
0.000000 0.000000 0.012000
0.031103 0.006268 0.018268
0.090287 0.013103 0.025103
0.162679 0.020490 0.032490
0.245407 0.028413 0.040413
0.335597 0.036857 0.048857
0.430376 0.045806 0.057806
0.526872 0.055245 0.067245
0.622211 0.065158 0.077158
0.011314 0.065846 0.035314
0.064249 0.076249 0.043428
0.131571 0.087093 0.052058
0.210407 0.098365 0.061187
0.297883 0.110047 0.070800
0.391128 0.122126 0.080882
0.487267 0.134584 0.091417
0.583428 0.147408 0.102390
0.676738 0.160581 0.113784
0.040631 0.161485 0.064631
0.102400 0.175014 0.074417
0.176860 0.188860 0.084666
0.261140 0.203008 0.095362
0.352366 0.217442 0.106490
0.447665 0.232147 0.118035
0.544165 0.247108 0.129980
0.638992 0.262308 0.142312
0.729273 0.277733 0.155013
0.075364 0.278786 0.099364
0.144966 0.294433 0.110646
0.225565 0.310273 0.122338
0.314289 0.326289 0.134426
0.408266 0.342468 0.146894
0.504620 0.358792 0.159726
0.600481 0.375246 0.172907
0.692974 0.391816 0.186422
0.779227 0.408485 0.200255
0.114922 0.409617 0.138922
0.191358 0.426375 0.151524
0.277097 0.443201 0.164485
0.369266 0.460079 0.177790
0.464993 0.476993 0.191422
0.561404 0.493928 0.205366
0.655626 0.510869 0.219608
0.744786 0.527800 0.234131
0.826012 0.544705 0.248919
0.158715 0.545849 0.182715
0.240986 0.562710 0.196463
0.330865 0.579514 0.210518
0.425480 0.596244 0.224863
0.521958 0.612887 0.239485
0.617425 0.629425 0.254367
0.709010 0.645845 0.269493
0.793838 0.662129 0.284849
0.869036 0.678263 0.300418
0.206155 0.679350 0.230155
0.293261 0.695306 0.244873
0.386281 0.711080 0.259846
0.482342 0.726656 0.275058
0.578572 0.742019 0.290493
0.672096 0.757153 0.306137
0.760043 0.772043 0.321973
0.839539 0.786673 0.337987
0.907711 0.801028 0.354162
0.256652 0.801990 0.280652
0.347594 0.816034 0.296165
0.442755 0.829770 0.311881
0.539263 0.843184 0.327783
0.634245 0.856259 0.343858
0.724827 0.868981 0.360088
0.808137 0.881334 0.376459
0.881302 0.893302 0.392955
0.941448 0.904869 0.409560
0.309616 0.905638 0.333616
0.403394 0.916761 0.349749
0.499697 0.927453 0.366032
0.595653 0.937696 0.382451
0.688387 0.947476 0.398988
0.775028 0.956778 0.415630
0.852701 0.965586 0.432360
0.918535 0.973884 0.449163
0.969656 0.981656 0.466024
0.000000 0.002064 0.049234
0.034205 0.008527 0.058205
0.094256 0.015551 0.067664
0.167344 0.023122 0.077598
0.250596 0.031223 0.087989
0.341140 0.039841 0.098823
0.436102 0.048958 0.110084
0.532610 0.058559 0.121757
0.627789 0.068630 0.133826
0.014011 0.069329 0.081329
0.067883 0.079883 0.091883
0.135971 0.090874 0.102874
0.215402 0.102287 0.114287
0.303302 0.114106 0.126106
0.396799 0.126315 0.138315
0.493020 0.138899 0.150899
0.589092 0.151843 0.163843
0.682141 0.165131 0.177131
0.043902 0.166043 0.118543
0.106506 0.179681 0.130506
0.181632 0.193632 0.142854
0.266405 0.207879 0.155571
0.357955 0.222407 0.168642
0.453406 0.237200 0.182051
0.549886 0.252244 0.195783
0.644523 0.267522 0.209823
0.734443 0.283020 0.224155
0.079148 0.284077 0.160289
0.149485 0.299791 0.173485
0.230649 0.315693 0.187014
0.319766 0.331766 0.200860
0.413964 0.347996 0.215008
0.510370 0.364366 0.229442
0.606111 0.380861 0.244147
0.698313 0.397466 0.259108
0.784104 0.414166 0.274308
0.119160 0.415300 0.205977
0.196231 0.432083 0.220231
0.282433 0.448928 0.234765
0.374895 0.465819 0.249565
0.470742 0.482742 0.264615
0.567103 0.499681 0.279899
0.661105 0.516620 0.295401
0.749873 0.533544 0.311107
0.830535 0.550438 0.327001
0.163349 0.551580 0.255016
0.246153 0.568424 0.270153
0.336395 0.585204 0.285518
0.431201 0.601907 0.301097
0.527699 0.618516 0.316873
0.623016 0.635016 0.332831
0.714278 0.651391 0.348956
0.798613 0.667626 0.365233
0.873148 0.683705 0.381645
0.211124 0.684788 0.306818
0.298662 0.700684 0.322662
0.391944 0.716393 0.338683
0.488096 0.731898 0.354865
0.584244 0.747185 0.371193
0.677517 0.762238 0.387650
0.765041 0.777041 0.404222
0.843944 0.791580 0.420894
0.911351 0.805838 0.437649
0.261897 0.806793 0.360793
0.353170 0.820734 0.377170
0.448492 0.834362 0.393671
0.544989 0.847663 0.410281
0.639790 0.860620 0.426985
0.730019 0.873218 0.443766
0.812806 0.885442 0.460610
0.885276 0.897276 0.477501
0.944556 0.908704 0.494424
0.315077 0.909463 0.416352
0.409086 0.920441 0.433086
0.505449 0.930982 0.449892
0.601293 0.941070 0.466755
0.693745 0.950690 0.483659
0.779932 0.959825 0.500590
0.856981 0.968462 0.517530
0.922020 0.976583 0.534466
0.972174 0.984174 0.551381
0.000000 0.004195 0.099302
0.037363 0.010850 0.110581
0.098271 0.018062 0.122271
0.172045 0.025814 0.134357
0.255812 0.034093 0.146822
0.346699 0.042881 0.159653
0.441834 0.052165 0.172832
0.538342 0.061927 0.186345
0.633352 0.072154 0.200176
0.016768 0.072863 0.138852
0.071567 0.083567 0.151452
0.140411 0.094703 0.164411
0.220427 0.106256 0.177714
0.308741 0.118209 0.191344
0.402481 0.130547 0.205287
0.498773 0.143255 0.219527
0.594745 0.156318 0.234048
0.687524 0.169719 0.248835
0.047227 0.170639 0.182639
0.110657 0.184385 0.196385
0.186437 0.198437 0.210437
0.271695 0.212782 0.224782
0.363557 0.227402 0.239402
0.459150 0.242282 0.254282
0.555601 0.257407 0.269407
0.650037 0.272762 0.284762
0.739586 0.288330 0.300330
0.082981 0.289392 0.230073
0.154043 0.305172 0.244790
0.235761 0.321133 0.259761
0.325261 0.337261 0.274971
0.419671 0.353540 0.290405
0.516118 0.369955 0.306048
0.611728 0.386489 0.321883
0.703629 0.403128 0.337896
0.788948 0.419855 0.354070
0.123442 0.420991 0.280565
0.201136 0.437797 0.296077
0.287791 0.454660 0.311791
0.380535 0.471564 0.327693
0.476494 0.488494 0.343766
0.572795 0.505435 0.359996
0.666565 0.522370 0.376366
0.754931 0.539286 0.392861
0.835020 0.556165 0.409466
0.168019 0.557306 0.333526
0.251346 0.574130 0.349658
0.341940 0.590886 0.365940
0.436928 0.607559 0.382358
0.533436 0.624132 0.398895
0.628591 0.640591 0.415536
0.719522 0.656921 0.432266
0.803354 0.673105 0.449068
0.877214 0.689128 0.465929
0.216124 0.690207 0.388365
0.304084 0.706041 0.404942
0.397617 0.721682 0.421617
0.493849 0.737115 0.438375
0.589907 0.752324 0.455201
0.682918 0.767294 0.472079
0.770009 0.782009 0.488993
0.848307 0.796454 0.505928
0.914940 0.810613 0.522869
0.267166 0.811561 0.444494
0.358761 0.825398 0.461340
0.454233 0.838917 0.478233
0.550710 0.852103 0.495157
0.645318 0.864940 0.512096
0.735185 0.877412 0.529035
0.817438 0.889505 0.545958
0.889203 0.901203 0.562850
0.947608 0.912490 0.579696
0.320557 0.913239 0.501323
0.414786 0.924071 0.518263
0.511198 0.934460 0.535198
0.606921 0.944390 0.552112
0.699080 0.953847 0.568989
0.784804 0.962815 0.585814
0.861218 0.971278 0.602572
0.925451 0.979221 0.619246
0.974629 0.986629 0.635821
0.000000 0.006392 0.160216
0.040578 0.013237 0.173410
0.102332 0.020635 0.186937
0.176781 0.028568 0.200781
0.261052 0.037021 0.214927
0.352273 0.045979 0.229360
0.447570 0.055427 0.244064
0.544070 0.065349 0.259023
0.638900 0.075729 0.274222
0.019586 0.076449 0.205897
0.075302 0.087302 0.220149
0.144891 0.098581 0.234682
0.225481 0.110271 0.249481
0.314199 0.122357 0.264529
0.408171 0.134822 0.279812
0.504525 0.147653 0.295313
0.600387 0.160832 0.311018
0.692885 0.174345 0.326911
0.050606 0.175272 0.254931
0.114852 0.189123 0.270067
0.191277 0.203277 0.285431
0.277008 0.217716 0.301008
0.369173 0.232427 0.316783
0.464897 0.247392 0.332741
0.561309 0.262596 0.348865
0.655534 0.278025 0.365140
0.744701 0.293663 0.381552
0.086862 0.294729 0.306729
0.158639 0.310573 0.322573
0.240900 0.326592 0.338592
0.330773 0.342773 0.354773
0.425385 0.359100 0.371100
0.521862 0.375557 0.387557
0.617332 0.392129 0.404129
0.708922 0.408799 0.420799
0.793758 0.425554 0.437554
0.127765 0.426691 0.360701
0.206073 0.443518 0.377077
0.293172 0.460396 0.393578
0.386187 0.477311 0.410187
0.482247 0.494247 0.426890
0.578477 0.511187 0.443671
0.672006 0.528118 0.460515
0.759960 0.545023 0.477406
0.839466 0.561886 0.494328
0.172725 0.563027 0.416258
0.256565 0.579829 0.432991
0.347501 0.596558 0.449797
0.442660 0.613199 0.466660
0.539168 0.629735 0.483564
0.634152 0.646152 0.500494
0.724740 0.662434 0.517435
0.808059 0.678565 0.534370
0.881235 0.694530 0.551286
0.221153 0.695605 0.472810
0.309526 0.711375 0.489725
0.403300 0.726948 0.506661
0.499602 0.742306 0.523602
0.595559 0.757436 0.540532
0.688298 0.772321 0.557436
0.774946 0.786946 0.574298
0.852630 0.801295 0.591103
0.918477 0.815354 0.607836
0.272459 0.816295 0.529767
0.364365 0.830026 0.546690
0.459978 0.843433 0.563580
0.556424 0.856502 0.580424
0.650830 0.869217 0.597204
0.740324 0.881563 0.613907
0.822033 0.893523 0.630516
0.893083 0.905083 0.647016
0.950602 0.916227 0.663391
0.326054 0.916967 0.586541
0.420494 0.927649 0.603295
0.516946 0.937884 0.619965
0.612536 0.947656 0.636536
0.704393 0.956948 0.652992
0.789643 0.965746 0.669318
0.865412 0.974035 0.685498
0.928829 0.981798 0.701517
0.977020 0.989020 0.717360
0.000000 0.008654 0.229991
0.043847 0.015688 0.244706
0.106437 0.023269 0.259676
0.181552 0.031381 0.274885
0.266318 0.040008 0.290318
0.357861 0.049134 0.305959
0.453310 0.058744 0.321793
0.549791 0.068824 0.337805
0.644431 0.079356 0.353978
0.022463 0.080086 0.280478
0.079085 0.091085 0.295989
0.149410 0.102505 0.311702
0.230564 0.114332 0.327603
0.319675 0.126548 0.343675
0.413870 0.139139 0.359904
0.510275 0.152090 0.376273
0.606017 0.165384 0.392768
0.698225 0.179007 0.409372
0.054038 0.179941 0.333435
0.119090 0.193897 0.349566
0.196149 0.208149 0.365848
0.282344 0.222682 0.382265
0.374801 0.237481 0.398801
0.470647 0.252529 0.415442
0.567009 0.267812 0.432171
0.661014 0.283313 0.448973
0.749789 0.299018 0.465834
0.090790 0.300089 0.388272
0.163272 0.315994 0.404848
0.246067 0.332070 0.421523
0.336302 0.348302 0.438280
0.431106 0.364675 0.455106
0.527604 0.381173 0.471983
0.622923 0.397780 0.488897
0.714191 0.414481 0.505832
0.798534 0.431260 0.522773
0.132129 0.432399 0.444399
0.211041 0.449245 0.461245
0.298573 0.466138 0.478138
0.391850 0.483061 0.495061
0.488000 0.500000 0.512000
0.584150 0.516939 0.528939
0.677427 0.533862 0.545862
0.764959 0.550755 0.562755
0.843871 0.567601 0.579601
0.177466 0.568740 0.501227
0.261809 0.585519 0.518168
0.353077 0.602220 0.535103
0.448396 0.618827 0.552017
0.544894 0.635325 0.568894
0.639698 0.651698 0.585720
0.729933 0.667930 0.602477
0.812728 0.684006 0.619152
0.885210 0.699911 0.635728
0.226211 0.700982 0.558166
0.314986 0.716687 0.575027
0.408991 0.732188 0.591829
0.505353 0.747471 0.608558
0.601199 0.762519 0.625199
0.693656 0.777318 0.641735
0.779851 0.791851 0.658152
0.856910 0.806103 0.674434
0.921962 0.820059 0.690565
0.277775 0.820993 0.614628
0.369983 0.834616 0.631232
0.465725 0.847910 0.647727
0.562130 0.860861 0.664096
0.656325 0.873452 0.680325
0.745436 0.885668 0.696397
0.826590 0.897495 0.712298
0.896915 0.908915 0.728011
0.953537 0.919914 0.743522
0.331569 0.920644 0.670022
0.426209 0.931176 0.686195
0.522690 0.941256 0.702207
0.618139 0.950866 0.718041
0.709682 0.959992 0.733682
0.794448 0.968619 0.749115
0.869563 0.976731 0.764324
0.932153 0.984312 0.779294
0.979346 0.991346 0.794009
0.000000 0.010980 0.306640
0.047171 0.018202 0.322483
0.110588 0.025965 0.338502
0.186357 0.034254 0.354682
0.271607 0.043052 0.371008
0.363464 0.052344 0.387464
0.459054 0.062116 0.404035
0.555506 0.072351 0.420705
0.649946 0.083033 0.437459
0.025398 0.083773 0.360609
0.082917 0.094917 0.376984
0.153967 0.106477 0.393484
0.235676 0.118437 0.410093
0.325170 0.130783 0.426796
0.419576 0.143498 0.443576
0.516022 0.156567 0.460420
0.611635 0.169974 0.477310
0.703541 0.183705 0.494233
0.057523 0.184646 0.416164
0.123370 0.198705 0.432897
0.201054 0.213054 0.449702
0.287702 0.227679 0.466564
0.380441 0.242564 0.483468
0.476398 0.257694 0.500398
0.572700 0.273052 0.517339
0.666474 0.288625 0.534275
0.754847 0.304395 0.551190
0.094765 0.305470 0.472714
0.167941 0.321435 0.489630
0.251260 0.337566 0.506565
0.341848 0.353848 0.523506
0.436832 0.370265 0.540436
0.533340 0.386801 0.557340
0.628499 0.403442 0.574203
0.719435 0.420171 0.591009
0.803275 0.436973 0.607742
0.136534 0.438114 0.529672
0.216040 0.454977 0.546594
0.303994 0.471882 0.563485
0.397523 0.488813 0.580329
0.493753 0.505753 0.597110
0.589813 0.522689 0.613813
0.682828 0.539604 0.630422
0.769927 0.556482 0.646923
0.848235 0.573309 0.663299
0.182242 0.574446 0.586446
0.267078 0.591201 0.603201
0.358668 0.607871 0.619871
0.454138 0.624443 0.636443
0.550615 0.640900 0.652900
0.645227 0.657227 0.669227
0.735100 0.673408 0.685408
0.817361 0.689427 0.701427
0.889138 0.705271 0.717271
0.231299 0.706337 0.642448
0.320466 0.721975 0.658860
0.414691 0.737404 0.675135
0.511103 0.752608 0.691259
0.606827 0.767573 0.707217
0.698992 0.782284 0.722992
0.784723 0.796723 0.738569
0.861148 0.810877 0.753933
0.925394 0.824728 0.769069
0.283115 0.825655 0.697089
0.375613 0.839168 0.712982
0.471475 0.852347 0.728687
0.567829 0.865178 0.744188
0.661801 0.877643 0.759471
0.750519 0.889729 0.774519
0.831109 0.901419 0.789318
0.900698 0.912698 0.803851
0.956414 0.923551 0.818103
0.337100 0.924271 0.749778
0.431930 0.934651 0.764977
0.528430 0.944573 0.779936
0.623727 0.954021 0.794640
0.714948 0.962979 0.809073
0.799219 0.971432 0.823219
0.873668 0.979365 0.837063
0.935422 0.986763 0.850590
0.981608 0.993608 0.863784
0.001371 0.013371 0.388179
0.050549 0.020779 0.404754
0.114782 0.028722 0.421428
0.191196 0.037185 0.438186
0.276920 0.046153 0.455011
0.369079 0.055610 0.471888
0.464802 0.065540 0.488802
0.561214 0.075929 0.505737
0.655443 0.086761 0.522677
0.028392 0.087510 0.444304
0.086797 0.098797 0.461150
0.158562 0.110495 0.478042
0.240815 0.122588 0.494965
0.330682 0.135060 0.511904
0.425290 0.147897 0.528843
0.521767 0.161083 0.545767
0.617239 0.174602 0.562660
0.708834 0.188439 0.579506
0.061060 0.189387 0.501131
0.127693 0.203546 0.518072
0.205991 0.217991 0.535007
0.293082 0.232706 0.551921
0.386093 0.247676 0.568799
0.482151 0.262885 0.585625
0.578383 0.278318 0.602383
0.671916 0.293959 0.619058
0.759876 0.309793 0.635635
0.098786 0.310872 0.558071
0.172646 0.326895 0.574932
0.256478 0.343079 0.591734
0.347409 0.359409 0.608464
0.442564 0.375868 0.625105
0.539072 0.392441 0.641642
0.634060 0.409114 0.658060
0.724654 0.425870 0.674342
0.807981 0.442694 0.690474
0.140980 0.443835 0.614534
0.221069 0.460714 0.631139
0.309435 0.477630 0.647634
0.403205 0.494565 0.664004
0.499506 0.511506 0.680234
0.595465 0.528436 0.696307
0.688209 0.545340 0.712209
0.774864 0.562203 0.727923
0.852558 0.579009 0.743435
0.187052 0.580145 0.669930
0.272371 0.596872 0.686104
0.364272 0.613511 0.702117
0.459882 0.630045 0.717952
0.556329 0.646460 0.733595
0.650739 0.662739 0.749029
0.740239 0.678867 0.764239
0.821957 0.694828 0.779210
0.893019 0.710608 0.793927
0.236414 0.711670 0.723670
0.325963 0.727238 0.739238
0.420399 0.742593 0.754593
0.516850 0.757718 0.769718
0.612443 0.772598 0.784598
0.704305 0.787218 0.799218
0.789562 0.801562 0.813562
0.865343 0.815615 0.827615
0.928773 0.829361 0.841361
0.288476 0.830281 0.775165
0.381255 0.843682 0.789952
0.477227 0.856745 0.804473
0.573519 0.869453 0.818713
0.667259 0.881791 0.832656
0.755573 0.893744 0.846286
0.835589 0.905297 0.859589
0.904433 0.916433 0.872548
0.959232 0.927137 0.885148
0.342648 0.927846 0.823824
0.437658 0.938073 0.837655
0.534166 0.947835 0.851168
0.629301 0.957119 0.864347
0.720188 0.965907 0.877178
0.803955 0.974186 0.889643
0.877729 0.981938 0.901729
0.938637 0.989150 0.913419
0.983805 0.995805 0.924698
0.003826 0.015826 0.472619
0.053980 0.023417 0.489534
0.119019 0.031538 0.506470
0.196068 0.040175 0.523410
0.282255 0.049310 0.540341
0.374707 0.058930 0.557245
0.470551 0.069018 0.574108
0.566914 0.079559 0.590914
0.660923 0.090537 0.607648
0.031444 0.091296 0.529576
0.090724 0.102724 0.546499
0.163194 0.114558 0.563390
0.245981 0.126782 0.580234
0.336210 0.139380 0.597015
0.431011 0.152337 0.613719
0.527508 0.165638 0.630329
0.622830 0.179266 0.646830
0.714103 0.193207 0.663207
0.064649 0.194162 0.586351
0.132056 0.208420 0.603106
0.210959 0.222959 0.619778
0.298483 0.237762 0.636350
0.391756 0.252815 0.652807
0.487904 0.268102 0.669135
0.584056 0.283607 0.685317
0.677338 0.299316 0.701338
0.764876 0.315212 0.717182
0.102852 0.316295 0.642355
0.177387 0.332374 0.658767
0.261722 0.348609 0.675044
0.352984 0.364984 0.691169
0.448301 0.381484 0.707127
0.544799 0.398093 0.722903
0.639605 0.414796 0.738482
0.729847 0.431576 0.753847
0.812651 0.448420 0.768984
0.145465 0.449562 0.696999
0.226127 0.466456 0.712893
0.314895 0.483380 0.728599
0.408897 0.500319 0.744101
0.505258 0.517258 0.759385
0.601105 0.534181 0.774435
0.693567 0.551072 0.789235
0.779769 0.567917 0.803769
0.856840 0.584700 0.818023
0.191896 0.585834 0.749692
0.277687 0.602534 0.764892
0.369889 0.619139 0.779853
0.465630 0.635634 0.794558
0.562036 0.652004 0.808992
0.656234 0.668234 0.823140
0.745351 0.684307 0.836986
0.826515 0.700209 0.850515
0.896852 0.715923 0.863711
0.241557 0.716980 0.799845
0.331477 0.732478 0.814177
0.426114 0.747756 0.828217
0.522594 0.762800 0.841949
0.618045 0.777593 0.855358
0.709595 0.792121 0.868429
0.794368 0.806368 0.881146
0.869494 0.820319 0.893494
0.932098 0.833957 0.905457
0.293859 0.834869 0.846869
0.386908 0.848157 0.860157
0.482980 0.861101 0.873101
0.579201 0.873685 0.885685
0.672698 0.885894 0.897894
0.760598 0.897713 0.909713
0.840029 0.909126 0.921126
0.908117 0.920117 0.932117
0.961989 0.930671 0.942671
0.348211 0.931370 0.890174
0.443390 0.941441 0.902243
0.539898 0.951042 0.913916
0.634860 0.960159 0.925177
0.725404 0.968777 0.936011
0.808656 0.976878 0.946402
0.881744 0.984449 0.956336
0.941795 0.991473 0.965795
0.985936 0.997936 0.974766
0.006344 0.018344 0.557976
0.057465 0.026116 0.574837
0.123299 0.034414 0.591640
0.200972 0.043222 0.608370
0.287613 0.052524 0.625012
0.380347 0.062304 0.641549
0.476303 0.072547 0.657968
0.572606 0.083239 0.674251
0.666384 0.094362 0.690384
0.034552 0.095131 0.614440
0.094698 0.106698 0.631045
0.167863 0.118666 0.647541
0.251173 0.131019 0.663912
0.341755 0.143741 0.680142
0.436737 0.156816 0.696217
0.533245 0.170230 0.712119
0.628406 0.183966 0.727835
0.719348 0.198010 0.743348
0.068289 0.198972 0.669838
0.136461 0.213327 0.686013
0.215957 0.227957 0.702027
0.303904 0.242847 0.717863
0.397428 0.257981 0.733507
0.493658 0.273344 0.748942
0.589719 0.288920 0.764154
0.682739 0.304694 0.779127
0.769845 0.320650 0.793845
0.106964 0.321737 0.723582
0.182162 0.337871 0.739151
0.266990 0.354155 0.754507
0.358575 0.370575 0.769633
0.454042 0.387113 0.784515
0.550520 0.403756 0.799137
0.645135 0.420486 0.813482
0.735014 0.437290 0.827537
0.817285 0.454151 0.841285
0.149988 0.455295 0.775081
0.231214 0.472200 0.789869
0.320374 0.489131 0.804392
0.414596 0.506072 0.818634
0.511007 0.523007 0.832578
0.606734 0.539921 0.846210
0.698903 0.556799 0.859515
0.784642 0.573625 0.872476
0.861078 0.590383 0.885078
0.196773 0.591515 0.823745
0.283026 0.608184 0.837578
0.375519 0.624754 0.851093
0.471380 0.641208 0.864274
0.567734 0.657532 0.877106
0.661711 0.673711 0.889574
0.750435 0.689727 0.901662
0.831034 0.705567 0.913354
0.900636 0.721214 0.924636
0.246727 0.722267 0.868987
0.337008 0.737692 0.881688
0.431835 0.752892 0.894020
0.528335 0.767853 0.905965
0.623634 0.782558 0.917510
0.714860 0.796992 0.928638
0.799140 0.811140 0.939334
0.873600 0.824986 0.949583
0.935369 0.838515 0.959369
0.299262 0.839419 0.910216
0.392572 0.852592 0.921610
0.488733 0.865416 0.932583
0.584872 0.877874 0.943118
0.678117 0.889953 0.953200
0.765593 0.901635 0.962813
0.844429 0.912907 0.971942
0.911751 0.923751 0.980572
0.964686 0.934154 0.988686
0.353789 0.934842 0.946842
0.449128 0.944755 0.956755
0.545624 0.954194 0.966194
0.640403 0.963143 0.975143
0.730593 0.971587 0.983587
0.813321 0.979510 0.991510
0.885713 0.986897 0.998897
0.944897 0.993732 1.000000
0.988000 1.000000 1.000000
