luts/cine_film_warm.cube
TITLE "Cinematic Warm Film"
# generated procedurally for DLSSNRExport
LUT_3D_SIZE 33
0.030117 0.030015 0.029869
0.225951 0.032199 0.031860
0.362456 0.033721 0.033259
0.462973 0.034841 0.034295
0.540048 0.035699 0.035092
0.601011 0.036378 0.035725
0.650429 0.036928 0.036238
0.691295 0.037383 0.036664
0.725650 0.037765 0.037023
0.754933 0.038091 0.037329
0.780191 0.038372 0.037593
0.802198 0.038617 0.037823
0.821545 0.038832 0.038026
0.838686 0.039023 0.038206
0.853977 0.039193 0.038366
0.867703 0.039346 0.038510
0.880093 0.039483 0.038641
0.891331 0.039608 0.038759
0.901573 0.039722 0.038867
0.910943 0.039826 0.038965
0.919550 0.039922 0.039056
0.927483 0.040010 0.039139
0.934817 0.040092 0.039216
0.941619 0.040168 0.039288
0.947944 0.040238 0.039355
0.953840 0.040303 0.039417
0.959350 0.040365 0.039475
0.964511 0.040422 0.039529
0.969354 0.040476 0.039580
0.973909 0.040527 0.039628
0.978199 0.040574 0.039674
0.982248 0.040619 0.039716
0.986076 0.040662 0.039757
0.037813 0.229445 0.036583
0.236380 0.231737 0.038664
0.374381 0.233322 0.040120
0.475791 0.234483 0.041196
0.553431 0.235369 0.042022
0.614769 0.236067 0.042676
0.664446 0.236632 0.043208
0.705493 0.237098 0.043647
0.739979 0.237489 0.044017
0.769359 0.237822 0.044333
0.794688 0.238109 0.044605
0.816749 0.238359 0.044842
0.836136 0.238578 0.045051
0.853307 0.238772 0.045236
0.868621 0.238945 0.045401
0.882365 0.239100 0.045550
0.894767 0.239240 0.045683
0.906015 0.239367 0.045805
0.916263 0.239483 0.045916
0.925639 0.239588 0.046017
0.934249 0.239685 0.046110
0.942183 0.239775 0.046196
0.949518 0.239858 0.046275
0.956320 0.239934 0.046349
0.962644 0.240005 0.046417
0.968539 0.240072 0.046481
0.974048 0.240134 0.046541
0.979206 0.240192 0.046597
0.984047 0.240246 0.046649
0.988599 0.240298 0.046698
0.992887 0.240346 0.046745
0.996933 0.240391 0.046789
1.000000 0.240434 0.046830
0.043046 0.367607 0.041345
0.242840 0.369920 0.043479
0.381418 0.371512 0.044969
0.483109 0.372673 0.046068
0.560884 0.373558 0.046910
0.622279 0.374254 0.047577
0.671970 0.374815 0.048118
0.713008 0.375278 0.048566
0.747471 0.375667 0.048942
0.776820 0.375997 0.049263
0.802115 0.376281 0.049540
0.824140 0.376528 0.049781
0.843491 0.376745 0.049993
0.860627 0.376937 0.050181
0.875907 0.377108 0.050348
0.889617 0.377261 0.050499
0.901988 0.377399 0.050635
0.913206 0.377524 0.050758
0.923425 0.377638 0.050870
0.932773 0.377743 0.050973
0.941357 0.377838 0.051068
0.949266 0.377927 0.051155
0.956578 0.378008 0.051235
0.963357 0.378084 0.051310
0.969660 0.378154 0.051379
0.975535 0.378219 0.051444
0.981024 0.378280 0.051504
0.986164 0.378337 0.051561
0.990987 0.378391 0.051614
0.995522 0.378442 0.051664
0.999794 0.378489 0.051711
1.000000 0.378534 0.051756
1.000000 0.378576 0.051798
0.046832 0.468886 0.044894
0.247181 0.471187 0.047062
0.385943 0.472764 0.048573
0.487666 0.473913 0.049686
0.565407 0.474785 0.050539
0.626739 0.475471 0.051214
0.676355 0.476024 0.051761
0.717316 0.476479 0.052213
0.751703 0.476860 0.052593
0.780980 0.477184 0.052917
0.806206 0.477462 0.053196
0.828168 0.477704 0.053440
0.847460 0.477917 0.053654
0.864540 0.478105 0.053844
0.879769 0.478272 0.054013
0.893431 0.478422 0.054165
0.905758 0.478557 0.054302
0.916934 0.478680 0.054426
0.927114 0.478792 0.054539
0.936426 0.478893 0.054643
0.944976 0.478987 0.054738
0.952854 0.479073 0.054826
0.960136 0.479153 0.054907
0.966887 0.479227 0.054982
0.973163 0.479295 0.055052
0.979013 0.479359 0.055118
0.984479 0.479419 0.055179
0.989597 0.479475 0.055236
0.994399 0.479527 0.055289
0.998914 0.479576 0.055340
1.000000 0.479622 0.055387
1.000000 0.479666 0.055432
1.000000 0.479708 0.055474
0.049695 0.546276 0.047638
0.250272 0.548552 0.049830
0.389040 0.550107 0.051355
0.490689 0.551237 0.052478
0.568327 0.552095 0.053338
0.629551 0.552768 0.054017
0.679062 0.553310 0.054568
0.719924 0.553755 0.055024
0.754220 0.554128 0.055406
0.783413 0.554445 0.055732
0.808562 0.554718 0.056013
0.830454 0.554954 0.056258
0.849681 0.555162 0.056474
0.866703 0.555346 0.056664
0.881877 0.555509 0.056835
0.895490 0.555655 0.056987
0.907770 0.555787 0.057125
0.918904 0.555907 0.057250
0.929045 0.556016 0.057364
0.938320 0.556115 0.057468
0.946836 0.556206 0.057564
0.954682 0.556290 0.057652
0.961934 0.556368 0.057734
0.968657 0.556440 0.057809
0.974907 0.556507 0.057880
0.980732 0.556569 0.057945
0.986174 0.556627 0.058006
0.991270 0.556682 0.058064
0.996051 0.556733 0.058118
1.000000 0.556781 0.058168
1.000000 0.556826 0.058216
1.000000 0.556868 0.058261
1.000000 0.556909 0.058303
0.051936 0.607320 0.049822
0.252574 0.609567 0.052031
0.391263 0.611098 0.053567
0.492792 0.612209 0.054696
0.570303 0.613051 0.055561
0.631405 0.613711 0.056244
0.680803 0.614242 0.056798
0.721563 0.614678 0.057255
0.755766 0.615043 0.057639
0.784875 0.615353 0.057967
0.809949 0.615620 0.058249
0.831772 0.615851 0.058495
0.850937 0.616054 0.058711
0.867902 0.616233 0.058903
0.883025 0.616393 0.059074
0.896590 0.616536 0.059227
0.908827 0.616664 0.059365
0.919920 0.616781 0.059490
0.930024 0.616887 0.059605
0.939264 0.616984 0.059709
0.947748 0.617073 0.059805
0.955564 0.617155 0.059894
0.962788 0.617231 0.059976
0.969485 0.617301 0.060052
0.975710 0.617366 0.060122
0.981512 0.617427 0.060188
0.986933 0.617483 0.060249
0.992008 0.617536 0.060307
0.996770 0.617586 0.060361
1.000000 0.617633 0.060412
1.000000 0.617677 0.060459
1.000000 0.617718 0.060504
1.000000 0.617757 0.060547
0.053737 0.656695 0.051602
0.254346 0.658911 0.053824
0.392919 0.660419 0.055367
0.494312 0.661511 0.056501
0.571690 0.662338 0.057369
0.632670 0.662985 0.058055
0.681957 0.663506 0.058611
0.722618 0.663933 0.059069
0.756733 0.664291 0.059455
0.785764 0.664594 0.059783
0.810767 0.664855 0.060067
0.832526 0.665081 0.060313
0.851633 0.665280 0.060530
0.868545 0.665455 0.060722
0.883620 0.665611 0.060893
0.897142 0.665751 0.061047
0.909338 0.665876 0.061185
0.920395 0.665990 0.061311
0.930464 0.666094 0.061425
0.939673 0.666189 0.061530
0.948128 0.666276 0.061627
0.955916 0.666356 0.061715
0.963115 0.666430 0.061797
0.969788 0.666498 0.061873
0.975991 0.666562 0.061944
0.981772 0.666621 0.062010
0.987173 0.666676 0.062071
0.992230 0.666728 0.062129
0.996974 0.666776 0.062183
1.000000 0.666822 0.062234
1.000000 0.666865 0.062282
1.000000 0.666905 0.062327
1.000000 0.666944 0.062370
0.055216 0.697449 0.053080
0.255749 0.699636 0.055311
0.394190 0.701122 0.056860
0.495443 0.702196 0.057998
0.572692 0.703009 0.058869
0.633555 0.703644 0.059557
0.682739 0.704155 0.060113
0.723307 0.704575 0.060573
0.757340 0.704926 0.060960
0.786298 0.705223 0.061289
0.811236 0.705478 0.061573
0.832936 0.705700 0.061820
0.851991 0.705894 0.062037
0.868856 0.706066 0.062229
0.883887 0.706219 0.062401
0.897369 0.706355 0.062554
0.909529 0.706479 0.062693
0.920552 0.706590 0.062819
0.930591 0.706692 0.062934
0.939771 0.706784 0.063039
0.948199 0.706869 0.063135
0.955963 0.706947 0.063224
0.963139 0.707020 0.063306
0.969791 0.707087 0.063382
0.975974 0.707149 0.063453
0.981736 0.707207 0.063519
0.987119 0.707261 0.063581
0.992159 0.707311 0.063638
0.996888 0.707359 0.063693
1.000000 0.707403 0.063744
1.000000 0.707445 0.063792
1.000000 0.707485 0.063837
1.000000 0.707522 0.063880
0.056452 0.731656 0.054326
0.256885 0.733816 0.056565
0.395189 0.735281 0.058119
0.496308 0.736339 0.059260
0.573433 0.737139 0.060132
0.634187 0.737764 0.060822
0.683274 0.738266 0.061379
0.723758 0.738678 0.061840
0.757716 0.739023 0.062227
0.786607 0.739314 0.062557
0.811486 0.739565 0.062841
0.833133 0.739783 0.063088
0.852140 0.739973 0.063306
0.868962 0.740141 0.063498
0.883954 0.740291 0.063670
0.897400 0.740425 0.063824
0.909527 0.740546 0.063963
0.920520 0.740655 0.064089
0.930531 0.740755 0.064204
0.939686 0.740845 0.064309
0.948090 0.740929 0.064406
0.955832 0.741005 0.064494
0.962987 0.741076 0.064577
0.969620 0.741142 0.064653
0.975785 0.741202 0.064724
0.981531 0.741259 0.064790
0.986898 0.741312 0.064851
0.991923 0.741362 0.064909
0.996638 0.741408 0.064963
1.000000 0.741452 0.065014
1.000000 0.741493 0.065062
1.000000 0.741532 0.065108
1.000000 0.741568 0.065151
0.057501 0.760776 0.055392
0.257822 0.762910 0.057637
0.395991 0.764356 0.059194
0.496982 0.765399 0.060337
0.573992 0.766187 0.061211
0.634645 0.766802 0.061902
0.683644 0.767296 0.062460
0.724050 0.767702 0.062922
0.757940 0.768040 0.063309
0.786770 0.768327 0.063639
0.811595 0.768574 0.063924
0.833195 0.768787 0.064171
0.852158 0.768974 0.064389
0.868940 0.769140 0.064582
0.883897 0.769287 0.064754
0.897311 0.769418 0.064908
0.909409 0.769537 0.065047
0.920375 0.769644 0.065173
0.930361 0.769742 0.065288
0.939493 0.769831 0.065393
0.947876 0.769913 0.065490
0.955598 0.769988 0.065579
0.962734 0.770057 0.065661
0.969350 0.770121 0.065737
0.975499 0.770181 0.065808
0.981229 0.770237 0.065874
0.986582 0.770289 0.065936
0.991594 0.770337 0.065994
0.996296 0.770383 0.066048
1.000000 0.770426 0.066099
1.000000 0.770466 0.066147
1.000000 0.770504 0.066192
1.000000 0.770540 0.066235
0.058401 0.785863 0.056313
0.258607 0.787974 0.058563
0.396647 0.789402 0.060123
0.497517 0.790431 0.061268
0.574421 0.791208 0.062144
0.634980 0.791815 0.062835
0.683898 0.792302 0.063394
0.724234 0.792701 0.063856
0.758061 0.793034 0.064244
0.786837 0.793317 0.064574
0.811613 0.793559 0.064859
0.833169 0.793769 0.065107
0.852093 0.793953 0.065324
0.868840 0.794116 0.065517
0.883765 0.794261 0.065689
0.897150 0.794390 0.065843
0.909221 0.794507 0.065983
0.920162 0.794612 0.066109
0.930126 0.794708 0.066224
0.939237 0.794795 0.066329
0.947601 0.794876 0.066426
0.955305 0.794950 0.066515
0.962425 0.795018 0.066597
0.969025 0.795081 0.066673
0.975159 0.795140 0.066744
0.980876 0.795194 0.066810
0.986216 0.795245 0.066872
0.991216 0.795293 0.066930
0.995907 0.795338 0.066984
1.000000 0.795380 0.067035
1.000000 0.795419 0.067083
1.000000 0.795457 0.067129
1.000000 0.795492 0.067171
0.059182 0.807700 0.057117
0.259273 0.809789 0.059371
0.397191 0.811201 0.060934
0.497949 0.812218 0.062080
0.574754 0.812985 0.062957
0.635228 0.813584 0.063649
0.684072 0.814064 0.064209
0.724342 0.814458 0.064671
0.758113 0.814786 0.065059
0.786839 0.815065 0.065389
0.811571 0.815304 0.065674
0.833087 0.815511 0.065922
0.851976 0.815692 0.066140
0.868691 0.815852 0.066333
0.883587 0.815994 0.066505
0.896945 0.816122 0.066660
0.908992 0.816237 0.066799
0.919911 0.816340 0.066925
0.929855 0.816435 0.067040
0.938947 0.816521 0.067145
0.947293 0.816600 0.067242
0.954982 0.816673 0.067331
0.962087 0.816740 0.067413
0.968672 0.816802 0.067490
0.974794 0.816860 0.067561
0.980498 0.816913 0.067627
0.985827 0.816964 0.067689
0.990816 0.817011 0.067746
0.995497 0.817055 0.067801
0.999897 0.817096 0.067852
1.000000 0.817135 0.067900
1.000000 0.817172 0.067945
1.000000 0.817206 0.067988
0.059867 0.826880 0.057825
0.259846 0.828950 0.060083
0.397648 0.830347 0.061648
0.498301 0.831352 0.062795
0.575016 0.832110 0.063673
0.635411 0.832702 0.064365
0.684187 0.833176 0.064925
0.724399 0.833564 0.065388
0.758118 0.833889 0.065776
0.786798 0.834163 0.066107
0.811489 0.834399 0.066392
0.832969 0.834603 0.066640
0.851826 0.834782 0.066858
0.868512 0.834940 0.067051
0.883382 0.835080 0.067223
0.896716 0.835206 0.067378
0.908741 0.835319 0.067517
0.919640 0.835421 0.067643
0.929565 0.835514 0.067758
0.938641 0.835599 0.067864
0.946971 0.835677 0.067960
0.954645 0.835748 0.068049
0.961736 0.835814 0.068132
0.968309 0.835876 0.068208
0.974419 0.835933 0.068279
0.980112 0.835986 0.068345
0.985431 0.836035 0.068407
0.990410 0.836081 0.068465
0.995081 0.836125 0.068519
0.999473 0.836165 0.068570
1.000000 0.836204 0.068618
1.000000 0.836240 0.068663
1.000000 0.836274 0.068706
0.060472 0.843860 0.058454
0.260342 0.845911 0.060715
0.398036 0.847295 0.062281
0.498593 0.848290 0.063430
0.575223 0.849039 0.064308
0.635546 0.849624 0.065000
0.684260 0.850093 0.065561
0.724417 0.850477 0.066024
0.758089 0.850797 0.066412
0.786728 0.851068 0.066743
0.811382 0.851301 0.067028
0.832830 0.851502 0.067277
0.851657 0.851679 0.067495
0.868316 0.851835 0.067688
0.883162 0.851973 0.067860
0.896475 0.852097 0.068014
0.908480 0.852209 0.068154
0.919361 0.852309 0.068280
0.929269 0.852401 0.068395
0.938329 0.852485 0.068500
0.946645 0.852562 0.068597
0.954306 0.852633 0.068686
0.961385 0.852698 0.068768
0.967946 0.852758 0.068845
0.974045 0.852814 0.068916
0.979728 0.852866 0.068982
0.985037 0.852915 0.069044
0.990007 0.852961 0.069102
0.994671 0.853004 0.069156
0.999054 0.853044 0.069207
1.000000 0.853081 0.069255
1.000000 0.853117 0.069300
1.000000 0.853151 0.069343
0.061010 0.858998 0.059015
0.260777 0.861032 0.061279
0.398369 0.862403 0.062847
0.498836 0.863388 0.063996
0.575389 0.864130 0.064875
0.635646 0.864709 0.065568
0.684302 0.865172 0.066129
0.724410 0.865552 0.066592
0.758038 0.865869 0.066980
0.786639 0.866137 0.067311
0.811259 0.866367 0.067596
0.832677 0.866566 0.067845
0.851477 0.866740 0.068063
0.868112 0.866894 0.068256
0.882936 0.867031 0.068428
0.896229 0.867153 0.068583
0.908216 0.867263 0.068722
0.919080 0.867363 0.068848
0.928973 0.867454 0.068963
0.938019 0.867536 0.069069
0.946322 0.867612 0.069165
0.953970 0.867682 0.069254
0.961038 0.867747 0.069337
0.967589 0.867806 0.069413
0.973678 0.867862 0.069484
0.979352 0.867913 0.069550
0.984653 0.867961 0.069612
0.989615 0.868006 0.069670
0.994270 0.868048 0.069724
0.998646 0.868088 0.069775
1.000000 0.868125 0.069823
1.000000 0.868160 0.069869
1.000000 0.868194 0.069912
0.061492 0.872577 0.059520
0.261161 0.874595 0.061786
0.398658 0.875955 0.063355
0.499041 0.876932 0.064505
0.575523 0.877667 0.065384
0.635718 0.878239 0.066077
0.684321 0.878698 0.066638
0.724383 0.879074 0.067102
0.757972 0.879387 0.067490
0.786537 0.879653 0.067821
0.811127 0.879880 0.068107
0.832517 0.880077 0.068355
0.851293 0.880249 0.068573
0.867906 0.880402 0.068766
0.882709 0.880537 0.068939
0.895984 0.880658 0.069093
0.907954 0.880767 0.069232
0.918804 0.880865 0.069359
0.928682 0.880955 0.069474
0.937715 0.881037 0.069579
0.946006 0.881112 0.069676
0.953644 0.881181 0.069765
0.960701 0.881244 0.069847
0.967242 0.881303 0.069924
0.973322 0.881358 0.069995
0.978988 0.881409 0.070061
0.984281 0.881456 0.070123
0.989235 0.881501 0.070180
0.993884 0.881542 0.070235
0.998253 0.881582 0.070286
1.000000 0.881618 0.070334
1.000000 0.881653 0.070379
1.000000 0.881686 0.070422
0.061926 0.884827 0.059976
0.261502 0.886831 0.062243
0.398910 0.888180 0.063814
0.499216 0.889148 0.064965
0.575631 0.889877 0.065844
0.635769 0.890444 0.066538
0.684324 0.890899 0.067099
0.724344 0.891271 0.067562
0.757895 0.891581 0.067951
0.786429 0.891844 0.068282
0.810990 0.892069 0.068568
0.832354 0.892264 0.068816
0.851107 0.892435 0.069034
0.867700 0.892585 0.069227
0.882485 0.892719 0.069400
0.895743 0.892839 0.069554
0.907698 0.892947 0.069693
0.918533 0.893044 0.069820
0.928399 0.893133 0.069935
0.937420 0.893213 0.070040
0.945700 0.893288 0.070137
0.953327 0.893356 0.070226
0.960375 0.893419 0.070308
0.966908 0.893477 0.070385
0.972980 0.893531 0.070456
0.978638 0.893582 0.070522
0.983923 0.893629 0.070584
0.988871 0.893672 0.070641
0.993513 0.893714 0.070696
0.997876 0.893752 0.070747
1.000000 0.893789 0.070795
1.000000 0.893823 0.070840
1.000000 0.893856 0.070883
0.062320 0.895933 0.060390
0.261806 0.897924 0.062659
0.399131 0.899263 0.064230
0.499365 0.900224 0.065382
0.575719 0.900946 0.066262
0.635804 0.901509 0.066956
0.684314 0.901960 0.067517
0.724295 0.902329 0.067980
0.757812 0.902636 0.068369
0.786316 0.902896 0.068701
0.810851 0.903119 0.068986
0.832192 0.903312 0.069234
0.850924 0.903481 0.069452
0.867498 0.903630 0.069646
0.882266 0.903763 0.069818
0.895508 0.903881 0.069972
0.907449 0.903988 0.070112
0.918272 0.904085 0.070238
0.928126 0.904172 0.070353
0.937136 0.904252 0.070459
0.945406 0.904326 0.070555
0.953023 0.904393 0.070644
0.960063 0.904456 0.070727
0.966587 0.904513 0.070803
0.972651 0.904567 0.070874
0.978302 0.904617 0.070940
0.983580 0.904663 0.071002
0.988522 0.904707 0.071060
0.993158 0.904747 0.071114
0.997516 0.904786 0.071165
1.000000 0.904822 0.071213
1.000000 0.904856 0.071259
1.000000 0.904888 0.071301
0.062677 0.906049 0.060767
0.262080 0.908027 0.063038
0.399328 0.909357 0.064610
0.499494 0.910311 0.065762
0.575790 0.911028 0.066642
0.635827 0.911586 0.067337
0.684294 0.912033 0.067898
0.724239 0.912399 0.068362
0.757725 0.912704 0.068751
0.786201 0.912962 0.069082
0.810712 0.913183 0.069367
0.832031 0.913374 0.069616
0.850744 0.913542 0.069834
0.867300 0.913689 0.070027
0.882053 0.913821 0.070199
0.895281 0.913938 0.070354
0.907209 0.914044 0.070493
0.918019 0.914140 0.070620
0.927862 0.914226 0.070735
0.936862 0.914306 0.070840
0.945123 0.914378 0.070937
0.952732 0.914445 0.071026
0.959763 0.914507 0.071108
0.966280 0.914564 0.071184
0.972337 0.914617 0.071255
0.977981 0.914667 0.071322
0.983254 0.914713 0.071383
0.988189 0.914756 0.071441
0.992820 0.914796 0.071495
0.997173 0.914834 0.071547
1.000000 0.914870 0.071595
1.000000 0.914903 0.071640
1.000000 0.914935 0.071683
0.063004 0.915302 0.061113
0.262328 0.917268 0.063386
0.399502 0.918589 0.064958
0.499606 0.919537 0.066111
0.575848 0.920249 0.066991
0.635840 0.920803 0.067685
0.684268 0.921246 0.068247
0.724179 0.921609 0.068710
0.757636 0.921911 0.069100
0.786087 0.922167 0.069431
0.810575 0.922386 0.069716
0.831874 0.922576 0.069965
0.850569 0.922742 0.070183
0.867109 0.922889 0.070376
0.881847 0.923019 0.070548
0.895061 0.923136 0.070703
0.906977 0.923240 0.070842
0.917777 0.923335 0.070969
0.927610 0.923421 0.071084
0.936600 0.923500 0.071189
0.944852 0.923572 0.071286
0.952453 0.923638 0.071375
0.959477 0.923699 0.071457
0.965987 0.923756 0.071533
0.972037 0.923808 0.071604
0.977676 0.923857 0.071671
0.982942 0.923903 0.071732
0.987873 0.923946 0.071790
0.992498 0.923986 0.071845
0.996846 0.924023 0.071896
1.000000 0.924059 0.071944
1.000000 0.924092 0.071989
1.000000 0.924123 0.072032
0.063303 0.923796 0.061431
0.262553 0.925752 0.063705
0.399659 0.927065 0.065278
0.499703 0.928006 0.066431
0.575896 0.928714 0.067311
0.635845 0.929264 0.068006
0.684237 0.929704 0.068567
0.724117 0.930064 0.069031
0.757547 0.930364 0.069420
0.785973 0.930618 0.069752
0.810440 0.930836 0.070037
0.831720 0.931024 0.070285
0.850399 0.931189 0.070504
0.866924 0.931334 0.070697
0.881648 0.931463 0.070869
0.894850 0.931579 0.071024
0.906755 0.931683 0.071163
0.917544 0.931777 0.071289
0.927368 0.931862 0.071405
0.936350 0.931940 0.071510
0.944594 0.932012 0.071606
0.952187 0.932077 0.071696
0.959204 0.932138 0.071778
0.965707 0.932194 0.071854
0.971752 0.932246 0.071925
0.977384 0.932295 0.071991
0.982646 0.932340 0.072053
0.987571 0.932382 0.072111
0.992192 0.932422 0.072165
0.996536 0.932459 0.072216
1.000000 0.932494 0.072264
1.000000 0.932527 0.072310
1.000000 0.932559 0.072353
0.063579 0.931623 0.061724
0.262758 0.933568 0.063999
0.399799 0.934874 0.065573
0.499789 0.935810 0.066726
0.575935 0.936512 0.067607
0.635844 0.937059 0.068301
0.684202 0.937496 0.068863
0.724053 0.937854 0.069327
0.757457 0.938152 0.069716
0.785861 0.938404 0.070047
0.810309 0.938620 0.070333
0.831572 0.938807 0.070581
0.850234 0.938970 0.070799
0.866746 0.939115 0.070993
0.881457 0.939243 0.071165
0.894648 0.939357 0.071319
0.906542 0.939460 0.071459
0.917322 0.939554 0.071585
0.927137 0.939638 0.071700
0.936110 0.939716 0.071806
0.944347 0.939787 0.071902
0.951933 0.939852 0.071991
0.958944 0.939912 0.072074
0.965441 0.939968 0.072150
0.971480 0.940019 0.072221
0.977107 0.940068 0.072287
0.982364 0.940112 0.072349
0.987284 0.940154 0.072407
0.991901 0.940194 0.072461
0.996240 0.940231 0.072512
1.000000 0.940266 0.072560
1.000000 0.940298 0.072605
1.000000 0.940329 0.072648
0.063834 0.938857 0.061995
0.262945 0.940793 0.064271
0.399927 0.942091 0.065845
0.499864 0.943022 0.066999
0.575966 0.943720 0.067880
0.635838 0.944263 0.068575
0.684165 0.944698 0.069136
0.723988 0.945053 0.069600
0.757369 0.945349 0.069989
0.785752 0.945600 0.070321
0.810181 0.945814 0.070606
0.831428 0.946000 0.070855
0.850076 0.946162 0.071073
0.866574 0.946305 0.071266
0.881274 0.946433 0.071438
0.894454 0.946546 0.071593
0.906338 0.946649 0.071732
0.917109 0.946741 0.071859
0.926916 0.946826 0.071974
0.935882 0.946902 0.072079
0.944111 0.946973 0.072176
0.951691 0.947037 0.072265
0.958696 0.947097 0.072347
0.965188 0.947152 0.072423
0.971221 0.947204 0.072494
0.976844 0.947251 0.072560
0.982095 0.947296 0.072622
0.987012 0.947338 0.072680
0.991624 0.947377 0.072734
0.995960 0.947413 0.072785
1.000000 0.947448 0.072833
1.000000 0.947480 0.072879
1.000000 0.947511 0.072922
0.064070 0.945563 0.062247
0.263118 0.947490 0.064524
0.400042 0.948782 0.066099
0.499931 0.949708 0.067252
0.575992 0.950402 0.068133
0.635829 0.950942 0.068828
0.684126 0.951374 0.069390
0.723923 0.951727 0.069854
0.757282 0.952021 0.070243
0.785646 0.952270 0.070574
0.810057 0.952483 0.070860
0.831289 0.952668 0.071108
0.849923 0.952829 0.071327
0.866409 0.952971 0.071520
0.881098 0.953098 0.071692
0.894268 0.953211 0.071847
0.906143 0.953312 0.071986
0.916906 0.953404 0.072112
0.926705 0.953488 0.072227
0.935664 0.953564 0.072333
0.943887 0.953634 0.072429
0.951461 0.953698 0.072518
0.958459 0.953758 0.072601
0.964946 0.953812 0.072677
0.970975 0.953863 0.072748
0.976593 0.953911 0.072814
0.981840 0.953955 0.072876
0.986752 0.953996 0.072934
0.991361 0.954035 0.072988
0.995693 0.954072 0.073039
0.999773 0.954106 0.073087
1.000000 0.954138 0.073132
1.000000 0.954169 0.073175
0.064289 0.951797 0.062481
0.263277 0.953716 0.064759
0.400147 0.955002 0.066334
0.499990 0.955923 0.067488
0.576012 0.956613 0.068369
0.635817 0.957151 0.069064
0.684085 0.957580 0.069626
0.723859 0.957931 0.070090
0.757197 0.958224 0.070479
0.785542 0.958471 0.070810
0.809938 0.958683 0.071096
0.831155 0.958866 0.071344
0.849777 0.959026 0.071563
0.866251 0.959168 0.071756
0.880930 0.959293 0.071928
0.894090 0.959406 0.072083
0.905957 0.959507 0.072222
0.916712 0.959598 0.072348
0.926503 0.959681 0.072463
0.935456 0.959757 0.072569
0.943673 0.959826 0.072665
0.951241 0.959890 0.072754
0.958234 0.959949 0.072837
0.964716 0.960003 0.072913
0.970740 0.960054 0.072984
0.976354 0.960101 0.073050
0.981597 0.960145 0.073112
0.986505 0.960186 0.073170
0.991110 0.960225 0.073224
0.995439 0.960261 0.073275
0.999516 0.960295 0.073323
1.000000 0.960327 0.073368
1.000000 0.960357 0.073411
0.064493 0.957608 0.062700
0.263424 0.959519 0.064978
0.400243 0.960799 0.066553
0.500043 0.961715 0.067708
0.576029 0.962402 0.068589
0.635802 0.962937 0.069284
0.684045 0.963364 0.069846
0.723796 0.963713 0.070310
0.757114 0.964004 0.070699
0.785442 0.964250 0.071031
0.809823 0.964460 0.071316
0.831026 0.964643 0.071564
0.849636 0.964802 0.071783
0.866100 0.964943 0.071976
0.880768 0.965067 0.072148
0.893920 0.965179 0.072303
0.905779 0.965279 0.072442
0.916526 0.965370 0.072568
0.926311 0.965453 0.072683
0.935257 0.965528 0.072789
0.943468 0.965597 0.072885
0.951031 0.965660 0.072974
0.958020 0.965719 0.073057
0.964497 0.965773 0.073133
0.970517 0.965823 0.073204
0.976126 0.965870 0.073270
0.981365 0.965914 0.073332
0.986271 0.965955 0.073390
0.990872 0.965993 0.073444
0.995198 0.966029 0.073495
0.999271 0.966063 0.073543
1.000000 0.966095 0.073588
1.000000 0.966125 0.073631
0.064683 0.963036 0.062904
0.263560 0.964940 0.065183
0.400331 0.966214 0.066759
0.500090 0.967127 0.067913
0.576042 0.967811 0.068795
0.635786 0.968342 0.069490
0.684004 0.968767 0.070052
0.723733 0.969115 0.070516
0.757033 0.969404 0.070905
0.785345 0.969649 0.071236
0.809711 0.969858 0.071522
0.830902 0.970039 0.071770
0.849501 0.970198 0.071988
0.865954 0.970337 0.072182
0.880614 0.970462 0.072354
0.893757 0.970573 0.072508
0.905608 0.970672 0.072648
0.916349 0.970763 0.072774
0.926127 0.970845 0.072889
0.935068 0.970920 0.072994
0.943273 0.970988 0.073091
0.950831 0.971051 0.073180
0.957815 0.971109 0.073262
0.964288 0.971163 0.073339
0.970303 0.971213 0.073410
0.975909 0.971260 0.073476
0.981145 0.971303 0.073537
