luts/cine_bleach_bypass.cube
TITLE "Cinematic Bleach Bypass"
# generated procedurally for DLSSNRExport
LUT_3D_SIZE 5
0.000000 0.000000 0.012000
0.090287 0.013103 0.025103
0.245407 0.028413 0.040413
0.430376 0.045806 0.057806
0.622211 0.065158 0.077158
0.040631 0.161485 0.064631
0.176860 0.188860 0.084666
0.352366 0.217442 0.106490
0.544165 0.247108 0.129980
0.729273 0.277733 0.155013
0.114922 0.409617 0.138922
0.277097 0.443201 0.164485
0.464993 0.476993 0.191422
0.655626 0.510869 0.219608
0.826012 0.544705 0.248919
0.206155 0.679350 0.230155
0.386281 0.711080 0.259846
0.578572 0.742019 0.290493
0.760043 0.772043 0.321973
0.907711 0.801028 0.354162
0.309616 0.905638 0.333616
0.499697 0.927453 0.366032
0.688387 0.947476 0.398988
0.852701 0.965586 0.432360
0.969656 0.981656 0.466024
0.000000 0.004195 0.099302
0.098271 0.018062 0.122271
0.255812 0.034093 0.146822
0.441834 0.052165 0.172832
0.633352 0.072154 0.200176
0.047227 0.170639 0.182639
0.186437 0.198437 0.210437
0.363557 0.227402 0.239402
0.555601 0.257407 0.269407
0.739586 0.288330 0.300330
0.123442 0.420991 0.280565
0.287791 0.454660 0.311791
0.476494 0.488494 0.343766
0.666565 0.522370 0.376366
0.835020 0.556165 0.409466
0.216124 0.690207 0.388365
0.397617 0.721682 0.421617
0.589907 0.752324 0.455201
0.770009 0.782009 0.488993
0.914940 0.810613 0.522869
0.320557 0.913239 0.501323
0.511198 0.934460 0.535198
0.699080 0.953847 0.568989
0.861218 0.971278 0.602572
0.974629 0.986629 0.635821
0.000000 0.008654 0.229991
0.106437 0.023269 0.259676
0.266318 0.040008 0.290318
0.453310 0.058744 0.321793
0.644431 0.079356 0.353978
0.054038 0.179941 0.333435
0.196149 0.208149 0.365848
0.374801 0.237481 0.398801
0.567009 0.267812 0.432171
0.749789 0.299018 0.465834
0.132129 0.432399 0.444399
0.298573 0.466138 0.478138
0.488000 0.500000 0.512000
0.677427 0.533862 0.545862
0.843871 0.567601 0.579601
0.226211 0.700982 0.558166
0.408991 0.732188 0.591829
0.601199 0.762519 0.625199
0.779851 0.791851 0.658152
0.921962 0.820059 0.690565
0.331569 0.920644 0.670022
0.522690 0.941256 0.702207
0.709682 0.959992 0.733682
0.869563 0.976731 0.764324
0.979346 0.991346 0.794009
0.001371 0.013371 0.388179
0.114782 0.028722 0.421428
0.276920 0.046153 0.455011
0.464802 0.065540 0.488802
0.655443 0.086761 0.522677
0.061060 0.189387 0.501131
0.205991 0.217991 0.535007
0.386093 0.247676 0.568799
0.578383 0.278318 0.602383
0.759876 0.309793 0.635635
0.140980 0.443835 0.614534
0.309435 0.477630 0.647634
0.499506 0.511506 0.680234
0.688209 0.545340 0.712209
0.852558 0.579009 0.743435
0.236414 0.711670 0.723670
0.420399 0.742593 0.754593
0.612443 0.772598 0.784598
0.789562 0.801562 0.813562
0.928773 0.829361 0.841361
0.342648 0.927846 0.823824
0.534166 0.947835 0.851168
0.720188 0.965907 0.877178
0.877729 0.981938 0.901729
0.983805 0.995805 0.924698
0.006344 0.018344 0.557976
0.123299 0.034414 0.591640
0.287613 0.052524 0.625012
0.476303 0.072547 0.657968
0.666384 0.094362 0.690384
0.068289 0.198972 0.669838
0.215957 0.227957 0.702027
0.397428 0.257981 0.733507
0.589719 0.288920 0.764154
0.769845 0.320650 0.793845
0.149988 0.455295 0.775081
0.320374 0.489131 0.804392
0.511007 0.523007 0.832578
0.698903 0.556799 0.859515
0.861078 0.590383 0.885078
0.246727 0.722267 0.868987
0.431835 0.752892 0.894020
0.623634 0.782558 0.917510
0.799140 0.811140 0.939334
0.935369 0.838515 0.959369
0.353789 0.934842 0.946842
0.545624 0.954194 0.966194
0.730593 0.971587 0.983587
0.885713 0.986897 0.998897
0.988000 1.000000 1.000000
