luts/cine_teal_orange.cube
TITLE "Cinematic Teal & Orange"
# generated procedurally for DLSSNRExport
LUT_3D_SIZE 33
0.000000 0.008270 0.047120
0.000000 0.007949 0.046423
0.017979 0.007606 0.045675
0.045271 0.007241 0.044879
0.074068 0.006858 0.044039
0.104253 0.006458 0.043158
0.135712 0.006043 0.042240
0.168328 0.005613 0.041287
0.201986 0.005172 0.040303
0.236571 0.004720 0.039292
0.271966 0.004260 0.038256
0.308057 0.003792 0.037199
0.344727 0.003319 0.036125
0.381861 0.002842 0.035037
0.419344 0.002362 0.033938
0.457059 0.001882 0.032831
0.494890 0.001402 0.031720
0.532723 0.000925 0.030608
0.570441 0.000451 0.029500
0.607929 0.000000 0.028397
0.645071 0.000000 0.027304
0.681751 0.000000 0.026223
0.717854 0.000000 0.025160
0.753263 0.000000 0.024116
0.787862 0.000000 0.023095
0.821537 0.000000 0.022101
0.854171 0.000000 0.021137
0.885649 0.000000 0.020207
0.915853 0.000000 0.019315
0.944670 0.000000 0.018462
0.971982 0.000000 0.017654
0.997674 0.000000 0.016894
1.000000 0.000000 0.016184
0.000000 0.031066 0.044773
0.000000 0.030747 0.044075
0.018201 0.030407 0.043326
0.045495 0.030046 0.042529
0.074293 0.029666 0.041688
0.104480 0.029270 0.040806
0.135941 0.028858 0.039886
0.168559 0.028432 0.038932
0.202219 0.027995 0.037947
0.236806 0.027547 0.036934
0.272204 0.027091 0.035897
0.308297 0.026628 0.034839
0.344970 0.026159 0.033763
0.382106 0.025686 0.032674
0.419591 0.025211 0.031573
0.457308 0.024736 0.030465
0.495142 0.024260 0.029352
0.532977 0.023787 0.028239
0.570698 0.023318 0.027129
0.608188 0.022853 0.026025
0.645333 0.022395 0.024930
0.682015 0.021945 0.023848
0.718120 0.021503 0.022783
0.753531 0.021072 0.021738
0.788133 0.020653 0.020716
0.821810 0.020246 0.019721
0.854446 0.019854 0.018756
0.885926 0.019477 0.017824
0.916132 0.019117 0.016930
0.944951 0.018774 0.016077
0.972265 0.018451 0.015268
0.997959 0.018148 0.014506
1.000000 0.017866 0.013796
0.000000 0.055524 0.042253
0.000000 0.055208 0.041553
0.018444 0.054871 0.040803
0.045740 0.054514 0.040005
0.074540 0.054138 0.039163
0.104729 0.053745 0.038279
0.136192 0.053337 0.037358
0.168813 0.052916 0.036403
0.202475 0.052483 0.035416
0.237065 0.052040 0.034402
0.272465 0.051588 0.033364
0.308560 0.051129 0.032304
0.345235 0.050665 0.031227
0.382374 0.050197 0.030136
0.419862 0.049727 0.029033
0.457581 0.049256 0.027923
0.495418 0.048786 0.026809
0.533256 0.048318 0.025695
0.570979 0.047853 0.024583
0.608472 0.047393 0.023477
0.645619 0.046940 0.022381
0.682304 0.046494 0.021298
0.718411 0.046057 0.020231
0.753825 0.045631 0.019184
0.788429 0.045216 0.018161
0.822109 0.044814 0.017164
0.854747 0.044425 0.016198
0.886228 0.044053 0.015265
0.916437 0.043696 0.014370
0.945258 0.043357 0.013515
0.972574 0.043037 0.012705
0.998269 0.042737 0.011942
1.000000 0.042459 0.011231
0.000000 0.081537 0.039569
0.000000 0.081225 0.038869
0.018709 0.080891 0.038117
0.046007 0.080537 0.037318
0.074809 0.080165 0.036474
0.105001 0.079777 0.035590
0.136466 0.079373 0.034667
0.169089 0.078956 0.033710
0.202754 0.078528 0.032722
0.237346 0.078089 0.031707
0.272748 0.077642 0.030666
0.308846 0.077189 0.029605
0.345524 0.076730 0.028527
0.382666 0.076267 0.027433
0.420156 0.075802 0.026329
0.457879 0.075336 0.025218
0.495718 0.074871 0.024102
0.533559 0.074407 0.022986
0.571285 0.073948 0.021872
0.608780 0.073493 0.020765
0.645930 0.073045 0.019667
0.682617 0.072604 0.018582
0.718727 0.072172 0.017514
0.754144 0.071750 0.016465
0.788751 0.071340 0.015440
0.822432 0.070943 0.014442
0.855073 0.070559 0.013474
0.886557 0.070190 0.012540
0.916768 0.069838 0.011644
0.945590 0.069503 0.010788
0.972908 0.069187 0.009976
0.998606 0.068890 0.009213
1.000000 0.068615 0.008500
0.000000 0.108997 0.036733
0.000000 0.108688 0.036032
0.018996 0.108358 0.035279
0.046296 0.108008 0.034479
0.075100 0.107640 0.033634
0.105294 0.107256 0.032747
0.136762 0.106857 0.031823
0.169387 0.106445 0.030865
0.203055 0.106021 0.029875
0.237649 0.105588 0.028858
0.273055 0.105146 0.027816
0.309156 0.104697 0.026753
0.345836 0.104243 0.025673
0.382981 0.103786 0.024578
0.420474 0.103326 0.023472
0.458199 0.102866 0.022359
0.496042 0.102406 0.021241
0.533885 0.101948 0.020123
0.571614 0.101494 0.019008
0.609113 0.101045 0.017899
0.646265 0.100602 0.016799
0.682955 0.100166 0.015713
0.719068 0.099740 0.014642
0.754487 0.099323 0.013592
0.789097 0.098918 0.012566
0.822781 0.098525 0.011566
0.855424 0.098146 0.010597
0.886911 0.097782 0.009661
0.917124 0.097434 0.008763
0.945949 0.097103 0.007906
0.973269 0.096791 0.007093
0.998968 0.096498 0.006328
1.000000 0.096226 0.005615
0.000000 0.137795 0.033756
0.000000 0.137490 0.033053
0.019304 0.137164 0.032299
0.046607 0.136818 0.031497
0.075414 0.136455 0.030651
0.105610 0.136075 0.029763
0.137080 0.135681 0.028838
0.169708 0.135273 0.027878
0.203378 0.134855 0.026886
0.237976 0.134427 0.025867
0.273384 0.133990 0.024824
0.309488 0.133547 0.023759
0.346171 0.133099 0.022677
0.383319 0.132647 0.021580
0.420815 0.132192 0.020472
0.458544 0.131738 0.019357
0.496389 0.131284 0.018238
0.534236 0.130832 0.017118
0.571968 0.130383 0.016001
0.609469 0.129939 0.014889
0.646625 0.129502 0.013788
0.683318 0.129072 0.012700
0.719433 0.128651 0.011628
0.754855 0.128239 0.010576
0.789468 0.127839 0.009548
0.823155 0.127452 0.008546
0.855801 0.127077 0.007575
0.887290 0.126718 0.006638
0.917505 0.126375 0.005739
0.946332 0.126048 0.004880
0.973655 0.125740 0.004066
0.999356 0.125451 0.003300
1.000000 0.125183 0.002585
0.000000 0.167824 0.030647
0.000000 0.167522 0.029943
0.019635 0.167200 0.029188
0.046939 0.166859 0.028385
0.075749 0.166500 0.027537
0.105948 0.166125 0.026648
0.137420 0.165736 0.025720
0.170051 0.165334 0.024759
0.203724 0.164920 0.023766
0.238325 0.164497 0.022745
0.273736 0.164066 0.021699
0.309843 0.163629 0.020633
0.346529 0.163186 0.019549
0.383680 0.162740 0.018450
0.421179 0.162292 0.017341
0.458911 0.161843 0.016223
0.496760 0.161395 0.015102
0.534609 0.160949 0.013980
0.572345 0.160506 0.012861
0.609849 0.160068 0.011748
0.647008 0.159637 0.010645
0.683704 0.159212 0.009554
0.719823 0.158797 0.008481
0.755248 0.158391 0.007427
0.789863 0.157996 0.006397
0.823553 0.157614 0.005394
0.856202 0.157245 0.004421
0.887693 0.156891 0.003482
0.917912 0.156552 0.002581
0.946741 0.156230 0.001721
0.974066 0.155926 0.000905
0.999769 0.155641 0.000138
1.000000 0.155376 0.000000
0.000000 0.198974 0.027419
0.000000 0.198677 0.026713
0.019987 0.198359 0.025957
0.047294 0.198022 0.025152
0.076106 0.197668 0.024303
0.106307 0.197297 0.023412
0.137783 0.196913 0.022483
0.170416 0.196516 0.021520
0.204093 0.196109 0.020525
0.238696 0.195691 0.019502
0.274110 0.195266 0.018455
0.310220 0.194834 0.017386
0.346910 0.194398 0.016300
0.384064 0.193958 0.015199
0.421566 0.193516 0.014088
0.459301 0.193073 0.012969
0.497153 0.192631 0.011846
0.535006 0.192191 0.010722
0.572745 0.191754 0.009600
0.610253 0.191323 0.008485
0.647415 0.190897 0.007380
0.684114 0.190479 0.006288
0.720236 0.190069 0.005212
0.755664 0.189669 0.004156
0.790283 0.189280 0.003124
0.823975 0.188903 0.002119
0.856627 0.188539 0.001145
0.888121 0.188190 0.000205
0.918342 0.187856 0.000000
0.947174 0.187539 0.000000
0.974501 0.187240 0.000000
1.000000 0.186959 0.000000
1.000000 0.186698 0.000000
0.000000 0.231138 0.024081
0.000000 0.230844 0.023374
0.020360 0.230531 0.022616
0.047670 0.230198 0.021810
0.076484 0.229849 0.020959
0.106688 0.229484 0.020067
0.138167 0.229105 0.019136
0.170803 0.228713 0.018171
0.204483 0.228311 0.017174
0.239089 0.227900 0.016149
0.274506 0.227480 0.015100
0.310620 0.227055 0.014030
0.347313 0.226624 0.012942
0.384470 0.226190 0.011839
0.421976 0.225755 0.010725
0.459714 0.225318 0.009604
0.497570 0.224883 0.008479
0.535426 0.224449 0.007353
0.573168 0.224019 0.006229
0.610679 0.223593 0.005112
0.647845 0.223174 0.004005
0.684548 0.222762 0.002911
0.720673 0.222358 0.001833
0.756104 0.221964 0.000775
0.790725 0.221581 0.000000
0.824421 0.221210 0.000000
0.857076 0.220851 0.000000
0.888573 0.220507 0.000000
0.918796 0.220179 0.000000
0.947631 0.219866 0.000000
0.974960 0.219571 0.000000
1.000000 0.219295 0.000000
1.000000 0.219038 0.000000
0.000000 0.264205 0.020645
0.000000 0.263916 0.019937
0.020755 0.263607 0.019178
0.048066 0.263279 0.018370
0.076884 0.262935 0.017517
0.107091 0.262575 0.016623
0.138572 0.262201 0.015691
0.171211 0.261816 0.014723
0.204894 0.261419 0.013725
0.239503 0.261014 0.012698
0.274924 0.260600 0.011647
0.311041 0.260181 0.010575
0.347737 0.259757 0.009484
0.384898 0.259329 0.008379
0.422407 0.258900 0.007264
0.460149 0.258470 0.006140
0.498008 0.258041 0.005013
0.535868 0.257614 0.003885
0.573614 0.257190 0.002759
0.611128 0.256771 0.001640
0.648297 0.256358 0.000530
0.685003 0.255952 0.000000
0.721132 0.255555 0.000000
0.756566 0.255167 0.000000
0.791191 0.254790 0.000000
0.824890 0.254424 0.000000
0.857547 0.254072 0.000000
0.889047 0.253733 0.000000
0.919274 0.253409 0.000000
0.948111 0.253102 0.000000
0.975443 0.252812 0.000000
1.000000 0.252540 0.000000
1.000000 0.252287 0.000000
0.000000 0.298068 0.017122
0.000000 0.297783 0.016412
0.021169 0.297478 0.015651
0.048484 0.297155 0.014842
0.077304 0.296816 0.013988
0.107513 0.296461 0.013092
0.138998 0.296093 0.012158
0.171640 0.295713 0.011188
0.205326 0.295323 0.010188
0.239939 0.294924 0.009159
0.275363 0.294517 0.008106
0.311483 0.294104 0.007031
0.348183 0.293686 0.005939
0.385347 0.293265 0.004832
0.422860 0.292842 0.003714
0.460606 0.292419 0.002589
0.498468 0.291996 0.001459
0.536332 0.291576 0.000329
0.574081 0.291159 0.000000
0.611599 0.290747 0.000000
0.648771 0.290340 0.000000
0.685481 0.289941 0.000000
0.721613 0.289550 0.000000
0.757051 0.289168 0.000000
0.791678 0.288797 0.000000
0.825381 0.288437 0.000000
0.858041 0.288090 0.000000
0.889544 0.287757 0.000000
0.919774 0.287439 0.000000
0.948613 0.287137 0.000000
0.975948 0.286851 0.000000
1.000000 0.286584 0.000000
1.000000 0.286336 0.000000
0.000000 0.332616 0.013522
0.000000 0.332336 0.012811
0.021604 0.332036 0.012049
0.048921 0.331718 0.011238
0.077743 0.331383 0.010382
0.107956 0.331034 0.009484
0.139443 0.330672 0.008548
0.172089 0.330298 0.007577
0.205778 0.329913 0.006575
0.240394 0.329520 0.005544
0.275822 0.329120 0.004489
0.311945 0.328713 0.003412
0.348649 0.328302 0.002317
0.385817 0.327888 0.001208
0.423333 0.327472 0.000088
0.461082 0.327055 0.000000
0.498949 0.326640 0.000000
0.536816 0.326226 0.000000
0.574568 0.325816 0.000000
0.612090 0.325410 0.000000
0.649266 0.325010 0.000000
0.685979 0.324618 0.000000
0.722115 0.324233 0.000000
0.757556 0.323858 0.000000
0.792187 0.323493 0.000000
0.825893 0.323139 0.000000
0.858556 0.322798 0.000000
0.890062 0.322471 0.000000
0.920295 0.322158 0.000000
0.949137 0.321861 0.000000
0.976475 0.321580 0.000000
1.000000 0.321317 0.000000
1.000000 0.321073 0.000000
0.000000 0.367741 0.009857
0.000000 0.367465 0.009145
0.022057 0.367169 0.008381
0.049377 0.366856 0.007569
0.078202 0.366527 0.006711
0.108418 0.366184 0.005811
0.139908 0.365827 0.004873
0.172557 0.365459 0.003901
0.206250 0.365081 0.002896
0.240869 0.364694 0.001863
0.276300 0.364300 0.000806
0.312427 0.363900 0.000000
0.349135 0.363495 0.000000
0.386306 0.363088 0.000000
0.423826 0.362679 0.000000
0.461579 0.362269 0.000000
0.499449 0.361860 0.000000
0.537320 0.361454 0.000000
0.575076 0.361050 0.000000
0.612602 0.360652 0.000000
0.649781 0.360259 0.000000
0.686498 0.359872 0.000000
0.722637 0.359494 0.000000
0.758082 0.359126 0.000000
0.792716 0.358767 0.000000
0.826425 0.358419 0.000000
0.859092 0.358084 0.000000
0.890601 0.357763 0.000000
0.920836 0.357456 0.000000
0.949682 0.357164 0.000000
0.977022 0.356888 0.000000
1.000000 0.356630 0.000000
1.000000 0.356390 0.000000
0.000000 0.403332 0.006139
0.000000 0.403060 0.005426
0.022528 0.402769 0.004660
0.049851 0.402461 0.003846
0.078679 0.402138 0.002986
0.108898 0.401800 0.002085
0.140392 0.401449 0.001145
0.173044 0.401087 0.000170
0.206739 0.400715 0.000000
0.241362 0.400334 0.000000
0.276797 0.399947 0.000000
0.312928 0.399553 0.000000
0.349638 0.399156 0.000000
0.386814 0.398755 0.000000
0.424337 0.398353 0.000000
0.462094 0.397950 0.000000
0.499968 0.397548 0.000000
0.537842 0.397149 0.000000
0.575602 0.396752 0.000000
0.613132 0.396361 0.000000
0.650315 0.395975 0.000000
0.687036 0.395595 0.000000
0.723178 0.395224 0.000000
0.758626 0.394862 0.000000
0.793264 0.394509 0.000000
0.826976 0.394168 0.000000
0.859647 0.393839 0.000000
0.891159 0.393523 0.000000
0.921397 0.393222 0.000000
0.950245 0.392935 0.000000
0.977588 0.392665 0.000000
1.000000 0.392411 0.000000
1.000000 0.392176 0.000000
0.000000 0.439279 0.002378
0.000000 0.439011 0.001663
0.023017 0.438725 0.000896
0.050342 0.438422 0.000080
0.079173 0.438104 0.000000
0.109395 0.437772 0.000000
0.140892 0.437427 0.000000
0.173547 0.437071 0.000000
0.207246 0.436705 0.000000
0.241873 0.436331 0.000000
0.277311 0.435950 0.000000
0.313445 0.435564 0.000000
0.350160 0.435173 0.000000
0.387339 0.434779 0.000000
0.424866 0.434384 0.000000
0.462627 0.433988 0.000000
0.500504 0.433594 0.000000
0.538383 0.433201 0.000000
0.576146 0.432812 0.000000
0.613680 0.432427 0.000000
0.650866 0.432048 0.000000
0.687591 0.431675 0.000000
0.723737 0.431311 0.000000
0.759188 0.430955 0.000000
0.793830 0.430609 0.000000
0.827546 0.430274 0.000000
0.860219 0.429951 0.000000
0.891734 0.429641 0.000000
0.921976 0.429345 0.000000
0.950827 0.429064 0.000000
0.978172 0.428799 0.000000
1.000000 0.428550 0.000000
1.000000 0.428319 0.000000
0.000000 0.475471 0.000000
0.000000 0.475208 0.000000
0.023521 0.474927 0.000000
0.050849 0.474630 0.000000
0.079683 0.474317 0.000000
0.109908 0.473990 0.000000
0.141408 0.473651 0.000000
0.174067 0.473301 0.000000
0.207769 0.472942 0.000000
0.242399 0.472574 0.000000
0.277841 0.472200 0.000000
0.313979 0.471820 0.000000
0.350697 0.471436 0.000000
0.387880 0.471049 0.000000
0.425411 0.470661 0.000000
0.463175 0.470273 0.000000
0.501056 0.469885 0.000000
0.538939 0.469500 0.000000
0.576706 0.469117 0.000000
0.614243 0.468740 0.000000
0.651434 0.468368 0.000000
0.688162 0.468002 0.000000
0.724312 0.467644 0.000000
0.759767 0.467295 0.000000
0.794412 0.466956 0.000000
0.828131 0.466627 0.000000
0.860808 0.466310 0.000000
0.892326 0.466006 0.000000
0.922571 0.465716 0.000000
0.951425 0.465440 0.000000
0.978773 0.465180 0.000000
1.000000 0.464936 0.000000
1.000000 0.464710 0.000000
0.000000 0.511799 0.000000
0.000000 0.511540 0.000000
0.024040 0.511264 0.000000
0.051371 0.510972 0.000000
0.080208 0.510664 0.000000
0.110436 0.510343 0.000000
0.141939 0.510010 0.000000
0.174601 0.509666 0.000000
0.208306 0.509313 0.000000
0.242940 0.508952 0.000000
0.278385 0.508585 0.000000
0.314527 0.508212 0.000000
0.351249 0.507835 0.000000
0.388435 0.507455 0.000000
0.425970 0.507074 0.000000
0.463738 0.506692 0.000000
0.501623 0.506312 0.000000
0.539510 0.505934 0.000000
0.577281 0.505559 0.000000
0.614822 0.505188 0.000000
0.652016 0.504823 0.000000
0.688748 0.504464 0.000000
0.724901 0.504113 0.000000
0.760360 0.503770 0.000000
0.795009 0.503438 0.000000
0.828731 0.503115 0.000000
0.861411 0.502805 0.000000
0.892933 0.502507 0.000000
0.923180 0.502222 0.000000
0.952037 0.501952 0.000000
0.979388 0.501697 0.000000
1.000000 0.501458 0.000000
1.000000 0.501236 0.000000
0.000000 0.548150 0.000000
0.000000 0.547896 0.000000
0.024571 0.547625 0.000000
0.051905 0.547338 0.000000
0.080745 0.547036 0.000000
0.110976 0.546720 0.000000
0.142482 0.546393 0.000000
0.175148 0.546056 0.000000
0.208857 0.545709 0.000000
0.243494 0.545354 0.000000
0.278943 0.544993 0.000000
0.315088 0.544627 0.000000
0.351813 0.544257 0.000000
0.389004 0.543884 0.000000
0.426543 0.543510 0.000000
0.464314 0.543136 0.000000
0.502203 0.542763 0.000000
0.540093 0.542392 0.000000
0.577869 0.542024 0.000000
0.615413 0.541660 0.000000
0.652611 0.541302 0.000000
0.689347 0.540950 0.000000
0.725504 0.540606 0.000000
0.760966 0.540270 0.000000
0.795618 0.539944 0.000000
0.829344 0.539628 0.000000
0.862027 0.539323 0.000000
0.893552 0.539031 0.000000
0.923803 0.538752 0.000000
0.952663 0.538487 0.000000
0.980016 0.538237 0.000000
1.000000 0.538003 0.000000
1.000000 0.537786 0.000000
0.000000 0.584414 0.000000
0.000000 0.584165 0.000000
0.025114 0.583899 0.000000
0.052450 0.583616 0.000000
0.081293 0.583320 0.000000
0.111527 0.583010 0.000000
0.143037 0.582689 0.000000
0.175706 0.582357 0.000000
0.209418 0.582017 0.000000
0.244058 0.581669 0.000000
0.279511 0.581315 0.000000
0.315660 0.580955 0.000000
0.352389 0.580592 0.000000
0.389583 0.580226 0.000000
0.427126 0.579859 0.000000
0.464902 0.579492 0.000000
0.502794 0.579126 0.000000
0.540688 0.578762 0.000000
0.578467 0.578401 0.000000
0.616016 0.578044 0.000000
0.653217 0.577693 0.000000
0.689956 0.577348 0.000000
0.726117 0.577011 0.000000
0.761583 0.576682 0.000000
0.796239 0.576362 0.000000
0.829968 0.576052 0.000000
0.862655 0.575754 0.000000
0.894183 0.575468 0.000000
0.924436 0.575194 0.000000
0.953299 0.574935 0.000000
0.980655 0.574690 0.000000
1.000000 0.574461 0.000000
1.000000 0.574248 0.000000
0.000000 0.620480 0.000000
0.000000 0.620235 0.000000
0.025666 0.619973 0.000000
0.053005 0.619696 0.000000
0.081851 0.619405 0.000000
0.112088 0.619101 0.000000
0.143601 0.618785 0.000000
0.176273 0.618460 0.000000
0.209989 0.618126 0.000000
0.244633 0.617784 0.000000
0.280089 0.617437 0.000000
0.316241 0.617084 0.000000
0.352974 0.616728 0.000000
0.390172 0.616369 0.000000
0.427718 0.616009 0.000000
0.465498 0.615649 0.000000
0.503394 0.615290 0.000000
0.541292 0.614932 0.000000
0.579075 0.614579 0.000000
0.616627 0.614229 0.000000
0.653832 0.613885 0.000000
0.690575 0.613547 0.000000
0.726740 0.613216 0.000000
0.762209 0.612893 0.000000
0.796868 0.612580 0.000000
0.830601 0.612277 0.000000
0.863291 0.611985 0.000000
0.894822 0.611704 0.000000
0.925078 0.611437 0.000000
0.953944 0.611182 0.000000
0.981303 0.610943 0.000000
1.000000 0.610718 0.000000
1.000000 0.610510 0.000000
0.000000 0.656234 0.000000
0.000507 0.655994 0.000000
0.026226 0.655737 0.000000
0.053568 0.655465 0.000000
0.082416 0.655179 0.000000
0.112656 0.654880 0.000000
0.144172 0.654571 0.000000
0.176847 0.654252 0.000000
0.210566 0.653924 0.000000
0.245214 0.653589 0.000000
0.280673 0.653247 0.000000
0.316830 0.652901 0.000000
0.353566 0.652552 0.000000
0.390768 0.652200 0.000000
0.428318 0.651847 0.000000
0.466101 0.651494 0.000000
0.504001 0.651141 0.000000
0.541903 0.650791 0.000000
0.579689 0.650445 0.000000
0.617245 0.650102 0.000000
0.654454 0.649764 0.000000
0.691201 0.649433 0.000000
0.727369 0.649109 0.000000
0.762842 0.648793 0.000000
0.797504 0.648486 0.000000
0.831240 0.648189 0.000000
0.863933 0.647903 0.000000
0.895468 0.647628 0.000000
0.925727 0.647366 0.000000
0.954596 0.647118 0.000000
0.981958 0.646883 0.000000
1.000000 0.646663 0.000000
1.000000 0.646459 0.000000
0.000000 0.691566 0.000000
0.001069 0.691330 0.000000
0.026791 0.691078 0.000000
0.054135 0.690810 0.000000
0.082986 0.690530 0.000000
0.113230 0.690237 0.000000
0.144748 0.689933 0.000000
0.177427 0.689620 0.000000
0.211149 0.689298 0.000000
0.245800 0.688969 0.000000
0.281263 0.688634 0.000000
0.317423 0.688295 0.000000
0.354163 0.687952 0.000000
0.391368 0.687607 0.000000
0.428922 0.687261 0.000000
0.466709 0.686915 0.000000
0.504613 0.686569 0.000000
0.542518 0.686226 0.000000
0.580308 0.685886 0.000000
0.617868 0.685550 0.000000
0.655081 0.685220 0.000000
0.691831 0.684895 0.000000
0.728002 0.684578 0.000000
0.763479 0.684268 0.000000
0.798145 0.683968 0.000000
0.831884 0.683677 0.000000
0.864580 0.683396 0.000000
0.896118 0.683128 0.000000
0.926380 0.682871 0.000000
0.955252 0.682628 0.000000
0.982616 0.682398 0.000000
1.000000 0.682183 0.000000
1.000000 0.681983 0.000000
0.000000 0.726362 0.000000
0.001634 0.726130 0.000000
0.027358 0.725883 0.000000
0.054705 0.725621 0.000000
0.083560 0.725345 0.000000
0.113806 0.725058 0.000000
0.145327 0.724759 0.000000
0.178009 0.724452 0.000000
0.211735 0.724136 0.000000
0.246389 0.723814 0.000000
0.281855 0.723485 0.000000
0.318018 0.723152 0.000000
0.354762 0.722816 0.000000
0.391971 0.722478 0.000000
0.429528 0.722138 0.000000
0.467319 0.721799 0.000000
0.505227 0.721460 0.000000
0.543135 0.721124 0.000000
0.580929 0.720791 0.000000
0.618492 0.720462 0.000000
0.655709 0.720138 0.000000
0.692463 0.719820 0.000000
0.728637 0.719509 0.000000
0.764117 0.719206 0.000000
0.798787 0.718911 0.000000
0.832529 0.718626 0.000000
0.865229 0.718352 0.000000
0.896769 0.718089 0.000000
0.927035 0.717838 0.000000
0.955909 0.717599 0.000000
0.983276 0.717375 0.000000
1.000000 0.717164 0.000000
1.000000 0.716969 0.000000
0.000000 0.760510 0.000000
0.002200 0.760283 0.000000
0.027926 0.760040 0.000000
0.055276 0.759782 0.000000
0.084133 0.759512 0.000000
0.114382 0.759230 0.000000
0.145907 0.758937 0.000000
0.178591 0.758635 0.000000
0.212320 0.758326 0.000000
0.246978 0.758009 0.000000
0.282448 0.757687 0.000000
0.318614 0.757360 0.000000
0.355361 0.757031 0.000000
0.392574 0.756699 0.000000
0.430135 0.756366 0.000000
0.467929 0.756033 0.000000
0.505840 0.755701 0.000000
0.543752 0.755372 0.000000
0.581550 0.755045 0.000000
0.619117 0.754723 0.000000
0.656336 0.754405 0.000000
0.693094 0.754094 0.000000
0.729272 0.753789 0.000000
0.764755 0.753492 0.000000
0.799428 0.753204 0.000000
0.833173 0.752925 0.000000
0.865876 0.752656 0.000000
0.897420 0.752399 0.000000
0.927688 0.752153 0.000000
0.956565 0.751920 0.000000
0.983935 0.751700 0.000000
1.000000 0.751494 0.000000
1.000000 0.751303 0.000000
0.000000 0.793898 0.000000
0.002764 0.793674 0.000000
0.028492 0.793435 0.000000
0.055844 0.793183 0.000000
0.084704 0.792917 0.000000
0.114956 0.792640 0.000000
0.146483 0.792353 0.000000
0.179171 0.792057 0.000000
0.212903 0.791753 0.000000
0.247564 0.791442 0.000000
0.283037 0.791126 0.000000
0.319207 0.790806 0.000000
0.355958 0.790483 0.000000
0.393173 0.790157 0.000000
0.430738 0.789831 0.000000
0.468535 0.789504 0.000000
0.506450 0.789179 0.000000
0.544366 0.788856 0.000000
0.582167 0.788536 0.000000
0.619737 0.788220 0.000000
0.656961 0.787909 0.000000
0.693721 0.787604 0.000000
0.729903 0.787305 0.000000
0.765389 0.787015 0.000000
0.800065 0.786732 0.000000
0.833814 0.786459 0.000000
0.866520 0.786196 0.000000
0.898066 0.785944 0.000000
0.928337 0.785703 0.000000
0.957217 0.785475 0.000000
0.984589 0.785260 0.000000
1.000000 0.785058 0.000000
1.000000 0.784871 0.000000
0.000000 0.826410 0.000000
0.003323 0.826191 0.000000
0.029054 0.825957 0.000000
0.056408 0.825708 0.000000
0.085271 0.825448 0.000000
0.115525 0.825176 0.000000
0.147055 0.824894 0.000000
0.179746 0.824603 0.000000
0.213481 0.824305 0.000000
0.248145 0.824000 0.000000
0.283621 0.823690 0.000000
0.319794 0.823376 0.000000
0.356548 0.823059 0.000000
0.393767 0.822739 0.000000
0.431335 0.822419 0.000000
0.469136 0.822099 0.000000
0.507054 0.821780 0.000000
0.544974 0.821463 0.000000
0.582778 0.821150 0.000000
0.620352 0.820840 0.000000
0.657578 0.820535 0.000000
0.694342 0.820236 0.000000
0.730527 0.819944 0.000000
0.766017 0.819659 0.000000
0.800696 0.819383 0.000000
0.834448 0.819115 0.000000
0.867156 0.818858 0.000000
0.898705 0.818611 0.000000
0.928979 0.818375 0.000000
0.957862 0.818152 0.000000
0.985236 0.817941 0.000000
1.000000 0.817744 0.000000
1.000000 0.817561 0.000000
0.000000 0.857936 0.000000
0.003874 0.857720 0.000000
0.029607 0.857490 0.000000
0.056964 0.857246 0.000000
0.085829 0.856990 0.000000
0.116086 0.856723 0.000000
0.147619 0.856447 0.000000
0.180313 0.856161 0.000000
0.214051 0.855868 0.000000
0.248718 0.855569 0.000000
0.284197 0.855265 0.000000
0.320373 0.854957 0.000000
0.357131 0.854645 0.000000
0.394353 0.854332 0.000000
0.431924 0.854018 0.000000
0.469728 0.853704 0.000000
0.507650 0.853391 0.000000
0.545572 0.853081 0.000000
0.583380 0.852773 0.000000
0.620957 0.852469 0.000000
0.658187 0.852170 0.000000
0.694954 0.851877 0.000000
0.731142 0.851591 0.000000
0.766635 0.851312 0.000000
0.801317 0.851041 0.000000
0.835071 0.850779 0.000000
0.867783 0.850527 0.000000
