luts/cine_teal_orange.cube
TITLE "Cinematic Teal & Orange"
# generated procedurally for DLSSNRExport
LUT_3D_SIZE 9
0.000000 0.008270 0.047120
0.074068 0.006858 0.044039
0.201986 0.005172 0.040303
0.344727 0.003319 0.036125
0.494890 0.001402 0.031720
0.645071 0.000000 0.027304
0.787862 0.000000 0.023095
0.915853 0.000000 0.019315
1.000000 0.000000 0.016184
0.000000 0.108997 0.036733
0.075100 0.107640 0.033634
0.203055 0.106021 0.029875
0.345836 0.104243 0.025673
0.496042 0.102406 0.021241
0.646265 0.100602 0.016799
0.789097 0.098918 0.012566
0.917124 0.097434 0.008763
1.000000 0.096226 0.005615
0.000000 0.231138 0.024081
0.076484 0.229849 0.020959
0.204483 0.228311 0.017174
0.347313 0.226624 0.012942
0.497570 0.224883 0.008479
0.647845 0.223174 0.004005
0.790725 0.221581 0.000000
0.918796 0.220179 0.000000
1.000000 0.219038 0.000000
0.000000 0.367741 0.009857
0.078202 0.366527 0.006711
0.206250 0.365081 0.002896
0.349135 0.363495 0.000000
0.499449 0.361860 0.000000
0.649781 0.360259 0.000000
0.792716 0.358767 0.000000
0.920836 0.357456 0.000000
1.000000 0.356390 0.000000
0.000000 0.511799 0.000000
0.080208 0.510664 0.000000
0.208306 0.509313 0.000000
0.351249 0.507835 0.000000
0.501623 0.506312 0.000000
0.652016 0.504823 0.000000
0.795009 0.503438 0.000000
0.923180 0.502222 0.000000
1.000000 0.501236 0.000000
0.000000 0.656234 0.000000
0.082416 0.655179 0.000000
0.210566 0.653924 0.000000
0.353566 0.652552 0.000000
0.504001 0.651141 0.000000
0.654454 0.649764 0.000000
0.797504 0.648486 0.000000
0.925727 0.647366 0.000000
1.000000 0.646459 0.000000
0.000000 0.793898 0.000000
0.084704 0.792917 0.000000
0.212903 0.791753 0.000000
0.355958 0.790483 0.000000
0.506450 0.789179 0.000000
0.656961 0.787909 0.000000
0.800065 0.786732 0.000000
0.928337 0.785703 0.000000
1.000000 0.784871 0.000000
0.000000 0.917569 0.000000
0.086911 0.916656 0.000000
0.215154 0.915573 0.000000
0.358257 0.914394 0.000000
0.508801 0.913186 0.000000
0.659363 0.912011 0.000000
0.802516 0.910926 0.000000
0.930832 0.909978 0.000000
1.000000 0.909214 0.000000
0.000000 1.000000 0.000000
0.088846 1.000000 0.000000
0.217125 1.000000 0.000000
0.360269 1.000000 0.000000
0.510855 1.000000 0.000000
0.661459 1.000000 0.000000
0.804653 1.000000 0.000000
0.933005 1.000000 0.000000
1.000000 1.000000 0.000000
0.000000 0.007789 0.151485
0.074168 0.006383 0.148402
0.202090 0.004703 0.144663
0.344835 0.002858 0.140483
0.495002 0.000949 0.136075
0.645187 0.000000 0.131656
0.787982 0.000000 0.127445
0.915977 0.000000 0.123662
1.000000 0.000000 0.120530
0.000000 0.108534 0.141091
0.075210 0.107184 0.137990
0.203168 0.105571 0.134229
0.345954 0.103801 0.130024
0.496164 0.101972 0.125590
0.646391 0.100175 0.121145
0.789227 0.098499 0.116909
0.917258 0.097022 0.113105
1.000000 0.095819 0.109954
0.000000 0.230698 0.128431
0.076606 0.229415 0.125308
0.204608 0.227884 0.121521
0.347443 0.226205 0.117286
0.497704 0.224471 0.112820
0.647983 0.222771 0.108344
0.790868 0.221185 0.104078
0.918943 0.219789 0.100246
1.000000 0.218654 0.097073
0.000000 0.367327 0.114200
0.078338 0.366119 0.111051
0.206389 0.364679 0.107234
0.349278 0.363101 0.102966
0.499597 0.361474 0.098465
0.649933 0.359881 0.093953
0.792873 0.358396 0.089654
0.920996 0.357092 0.085792
1.000000 0.356032 0.082595
0.000000 0.511412 0.099108
0.080358 0.510283 0.095934
0.208460 0.508939 0.092085
0.351407 0.507468 0.087781
0.501786 0.505953 0.083244
0.652183 0.504471 0.078695
0.795179 0.503094 0.074361
0.923355 0.501885 0.070468
1.000000 0.500905 0.067244
0.000000 0.655874 0.083892
0.082581 0.654824 0.080692
0.210735 0.653576 0.076812
0.353739 0.652212 0.072473
0.504178 0.650809 0.067898
0.654635 0.649440 0.063313
0.797689 0.648170 0.058943
0.925916 0.647056 0.055018
1.000000 0.646155 0.051769
0.000000 0.793563 0.069312
0.084883 0.792588 0.066086
0.213085 0.791431 0.062176
0.356144 0.790168 0.057804
0.506641 0.788872 0.053194
0.657155 0.787610 0.048574
0.800264 0.786441 0.044171
0.928540 0.785419 0.040216
1.000000 0.784592 0.036942
0.000000 0.917257 0.056148
0.087102 0.916350 0.052901
0.215348 0.915274 0.048964
0.358456 0.914102 0.044561
0.509004 0.912902 0.039920
0.659570 0.911735 0.035268
0.802728 0.910657 0.030835
0.931047 0.909717 0.026853
1.000000 0.908958 0.023557
0.000000 1.000000 0.045202
0.089047 1.000000 0.041936
0.217329 1.000000 0.037977
0.360477 1.000000 0.033550
0.511068 1.000000 0.028883
0.661677 1.000000 0.024204
0.804875 1.000000 0.019747
0.933230 1.000000 0.015743
1.000000 1.000000 0.012428
0.000000 0.007209 0.277777
0.074290 0.005810 0.274692
0.202216 0.004138 0.270951
0.344966 0.002302 0.266767
0.495138 0.000403 0.262356
0.645329 0.000000 0.257934
0.788129 0.000000 0.253720
0.916128 0.000000 0.249934
1.000000 0.000000 0.246800
0.000000 0.107977 0.267376
0.075344 0.106633 0.264272
0.203307 0.105029 0.260509
0.346097 0.103268 0.256301
0.496312 0.101448 0.251864
0.646545 0.099662 0.247416
0.789386 0.097994 0.243177
0.917421 0.096526 0.239369
1.000000 0.095330 0.236217
0.000000 0.230169 0.254707
0.076755 0.228892 0.251581
0.204762 0.227370 0.247791
0.347601 0.225700 0.243553
0.497868 0.223975 0.239084
0.648152 0.222285 0.234605
0.791042 0.220708 0.230336
0.919121 0.219321 0.226501
1.000000 0.218193 0.223327
0.000000 0.366828 0.240465
0.078504 0.365627 0.237314
0.206559 0.364196 0.233495
0.349453 0.362627 0.229223
0.499777 0.361010 0.224719
0.650119 0.359426 0.220204
0.793063 0.357951 0.215902
0.921191 0.356654 0.212038
1.000000 0.355601 0.208838
0.000000 0.510946 0.225363
0.080541 0.509823 0.222186
0.208648 0.508488 0.218335
0.351599 0.507026 0.214028
0.501984 0.505521 0.209487
0.652386 0.504049 0.204936
0.795387 0.502681 0.200598
0.923567 0.501480 0.196702
1.000000 0.500506 0.193477
0.000000 0.655441 0.210136
0.082782 0.654398 0.206934
0.210940 0.653157 0.203051
0.353949 0.651802 0.198709
0.504393 0.650410 0.194131
0.654856 0.649050 0.189542
0.797915 0.647789 0.185170
0.926146 0.646684 0.181242
1.000000 0.645789 0.177991
0.000000 0.793160 0.195545
0.085100 0.792192 0.192318
0.213307 0.791043 0.188405
0.356371 0.789790 0.184030
0.506872 0.788504 0.179417
0.657392 0.787251 0.174793
0.800506 0.786091 0.170387
0.928786 0.785077 0.166430
1.000000 0.784258 0.163153
0.000000 0.916882 0.182373
0.087334 0.915982 0.179123
0.215585 0.914914 0.175183
0.358697 0.913751 0.170778
0.509251 0.912561 0.166134
0.659822 0.911404 0.161478
0.802984 0.910335 0.157042
0.931308 0.909403 0.153058
1.000000 0.908651 0.149760
0.000000 1.000000 0.171419
0.089291 1.000000 0.168151
0.217578 1.000000 0.164189
0.360731 1.000000 0.159759
0.511327 1.000000 0.155089
0.661941 1.000000 0.150407
0.805144 1.000000 0.145946
0.933504 1.000000 0.141940
1.000000 1.000000 0.138623
0.000000 0.006565 0.418687
0.074427 0.005173 0.415599
0.202359 0.003511 0.411855
0.345114 0.001685 0.407669
0.495292 0.000000 0.403254
0.645489 0.000000 0.398828
0.788294 0.000000 0.394611
0.916299 0.000000 0.390822
1.000000 0.000000 0.387686
0.000000 0.107359 0.408278
0.075496 0.106023 0.405172
0.203463 0.104428 0.401405
0.346259 0.102677 0.397194
0.496480 0.100868 0.392753
0.646719 0.099092 0.388302
0.789565 0.097435 0.384059
0.917605 0.095975 0.380249
1.000000 0.094788 0.377093
0.000000 0.229581 0.395599
0.076924 0.228313 0.392470
0.204935 0.226799 0.388677
0.347780 0.225139 0.384436
0.498052 0.223426 0.379964
0.648342 0.221746 0.375480
0.791237 0.220180 0.371208
0.919321 0.218802 0.367371
1.000000 0.217681 0.364193
0.000000 0.366276 0.381345
0.078691 0.365082 0.378192
0.206751 0.363660 0.374369
0.349650 0.362101 0.370094
0.499980 0.360495 0.365587
0.650327 0.358921 0.361069
0.793277 0.357457 0.356763
0.921410 0.356170 0.352895
1.000000 0.355124 0.349694
0.000000 0.510429 0.366231
0.080747 0.509314 0.363052
0.208859 0.507988 0.359198
0.351816 0.506536 0.354888
0.502206 0.505042 0.350343
0.652614 0.503581 0.345788
0.795621 0.502223 0.341447
0.923806 0.501032 0.337548
1.000000 0.500065 0.334320
0.000000 0.654960 0.350993
0.083007 0.653925 0.347788
0.211171 0.652694 0.343902
0.354185 0.651349 0.339556
0.504635 0.649967 0.334975
0.655104 0.648618 0.330383
0.798168 0.647367 0.326007
0.926404 0.646272 0.322076
1.000000 0.645384 0.318822
0.000000 0.792714 0.336390
0.085344 0.791754 0.333161
0.213556 0.790614 0.329245
0.356625 0.789371 0.324866
0.507133 0.788096 0.320250
0.657659 0.786854 0.315622
0.800778 0.785704 0.311213
0.929063 0.784699 0.307252
1.000000 0.783887 0.303973
0.000000 0.916467 0.323208
0.087595 0.915574 0.319955
0.215851 0.914516 0.316013
0.358968 0.913363 0.311604
0.509528 0.912184 0.306956
0.660105 0.911038 0.302297
0.803273 0.909979 0.297858
0.931602 0.909056 0.293870
1.000000 0.908311 0.290569
0.000000 1.000000 0.312245
0.089566 1.000000 0.308975
0.217858 1.000000 0.305010
0.361016 1.000000 0.300577
0.511618 1.000000 0.295903
0.662237 1.000000 0.291218
0.805446 1.000000 0.286754
0.933811 1.000000 0.282744
1.000000 1.000000 0.279425
0.000000 0.005892 0.566905
0.074574 0.004508 0.563815
0.202511 0.002855 0.560068
0.345272 0.001040 0.555878
0.495457 0.000000 0.551459
0.645659 0.000000 0.547030
0.788470 0.000000 0.542809
0.916480 0.000000 0.539017
1.000000 0.000000 0.535878
0.000000 0.106712 0.556487
0.075657 0.105384 0.553378
0.203630 0.103799 0.549609
0.346432 0.102059 0.545394
0.496659 0.100261 0.540950
0.646903 0.098497 0.536494
0.789756 0.096850 0.532248
0.917801 0.095400 0.528434
1.000000 0.094220 0.525277
0.000000 0.228967 0.543797
0.077103 0.227706 0.540666
0.205119 0.226203 0.536870
0.347970 0.224554 0.532625
0.498248 0.222852 0.528149
0.648544 0.221183 0.523662
0.791445 0.219628 0.519387
0.919535 0.218259 0.515546
1.000000 0.217147 0.512366
0.000000 0.365698 0.529532
0.078889 0.364512 0.526376
0.206955 0.363099 0.522550
0.349860 0.361552 0.518272
0.500195 0.359957 0.513761
0.650549 0.358395 0.509239
0.793505 0.356941 0.504929
0.921643 0.355663 0.501059
1.000000 0.354626 0.497854
0.000000 0.509889 0.514406
0.080966 0.508783 0.511224
0.209083 0.507466 0.507366
0.352046 0.506025 0.503053
0.502442 0.504542 0.498505
0.652856 0.503092 0.493945
0.795869 0.501745 0.489601
0.924059 0.500564 0.485699
1.000000 0.499605 0.482468
0.000000 0.654459 0.499155
0.083247 0.653431 0.495947
0.211415 0.652210 0.492058
0.354435 0.650876 0.487709
0.504892 0.649505 0.483124
0.655366 0.648168 0.478528
0.798437 0.646928 0.474148
0.926678 0.645842 0.470215
1.000000 0.644962 0.466958
0.000000 0.792249 0.484540
0.085603 0.791297 0.481308
0.213821 0.790166 0.477389
0.356895 0.788934 0.473006
0.507409 0.787670 0.468386
0.657941 0.786440 0.463755
0.801066 0.785301 0.459342
0.929356 0.784306 0.455378
1.000000 0.783502 0.452097
0.000000 0.916034 0.471347
0.087871 0.915149 0.468092
0.216132 0.914101 0.464146
0.359256 0.912959 0.459734
0.509821 0.911791 0.455082
0.660404 0.910656 0.450419
0.803578 0.909608 0.445977
0.931912 0.908695 0.441986
1.000000 0.907958 0.438682
0.000000 1.000000 0.460376
0.089857 1.000000 0.457103
0.218154 1.000000 0.453135
0.361318 1.000000 0.448698
0.511926 1.000000 0.444020
0.662551 1.000000 0.439331
0.805766 1.000000 0.434863
0.934136 1.000000 0.430851
1.000000 1.000000 0.427529
0.000000 0.005222 0.715123
0.074723 0.003846 0.712029
0.202665 0.002204 0.708279
0.345432 0.000399 0.704085
0.495623 0.000000 0.699663
0.645831 0.000000 0.695230
0.788649 0.000000 0.691005
0.916663 0.000000 0.687211
1.000000 0.000000 0.684069
0.000000 0.106070 0.704696
0.075821 0.104749 0.701584
0.203799 0.103174 0.697812
0.346606 0.101445 0.693593
0.496839 0.099658 0.689145
0.647090 0.097905 0.684686
0.789948 0.096270 0.680436
0.917999 0.094829 0.676619
1.000000 0.093657 0.673459
0.000000 0.228357 0.691995
0.077283 0.227104 0.688861
0.205305 0.225610 0.685062
0.348162 0.223972 0.680814
0.498446 0.222281 0.676334
0.648748 0.220624 0.671843
0.791655 0.219079 0.667564
0.919750 0.217721 0.663720
1.000000 0.216616 0.660537
0.000000 0.365124 0.677718
0.079090 0.363946 0.674559
0.207160 0.362543 0.670730
0.350071 0.361006 0.666448
0.500413 0.359422 0.661933
0.650773 0.357872 0.657408
0.793734 0.356429 0.653095
0.921878 0.355161 0.649221
1.000000 0.354132 0.646014
0.000000 0.509354 0.662579
0.081187 0.508255 0.659394
0.209310 0.506948 0.655533
0.352278 0.505518 0.651216
0.502680 0.504046 0.646665
0.653100 0.502608 0.642102
0.796119 0.501271 0.637754
0.924314 0.500099 0.633848
1.000000 0.499149 0.630615
0.000000 0.653961 0.647315
0.083488 0.652942 0.644105
0.211662 0.651730 0.640212
0.354688 0.650407 0.635860
0.505150 0.649047 0.631271
0.655631 0.647721 0.626671
0.798707 0.646492 0.622288
0.926953 0.645416 0.618352
1.000000 0.644544 0.615092
0.000000 0.791788 0.632689
0.085864 0.790843 0.629454
0.214087 0.789723 0.625531
0.357167 0.788501 0.621146
0.507687 0.787248 0.616522
0.658225 0.786029 0.611887
0.801356 0.784901 0.607470
0.929651 0.783916 0.603503
1.000000 0.783120 0.600219
0.000000 0.915605 0.619485
0.088150 0.914728 0.616227
0.216416 0.913689 0.612278
0.359545 0.912559 0.607862
0.510117 0.911402 0.603207
0.660706 0.910278 0.598541
0.803886 0.909241 0.594094
0.932225 0.908337 0.590100
1.000000 0.907609 0.586794
0.000000 1.000000 0.608505
0.090149 1.000000 0.605229
0.218452 1.000000 0.601258
0.361622 1.000000 0.596817
0.512236 1.000000 0.592136
0.662868 1.000000 0.587443
0.806088 1.000000 0.582972
0.934463 1.000000 0.578956
1.000000 1.000000 0.575632
0.000000 0.004589 0.856029
0.074867 0.003221 0.852934
0.202814 0.001587 0.849180
0.345586 0.000000 0.844983
0.495783 0.000000 0.840557
0.645997 0.000000 0.836121
0.788820 0.000000 0.831893
0.916839 0.000000 0.828095
1.000000 0.000000 0.824950
0.000000 0.105462 0.845594
0.075978 0.104150 0.842480
0.203961 0.102583 0.838704
0.346774 0.100864 0.834482
0.497013 0.099089 0.830031
0.647270 0.097346 0.825568
0.790133 0.095721 0.821315
0.918189 0.094290 0.817495
1.000000 0.093125 0.814332
0.000000 0.227781 0.832883
0.077457 0.226535 0.829747
0.205484 0.225051 0.825945
0.348346 0.223422 0.821693
0.498636 0.221743 0.817209
0.648944 0.220096 0.812715
0.791857 0.218562 0.808432
0.919956 0.217212 0.804586
1.000000 0.216115 0.801401
0.000000 0.364582 0.818595
0.079282 0.363412 0.815434
0.207358 0.362018 0.811601
0.350274 0.360491 0.807316
0.500622 0.358918 0.802798
0.650987 0.357378 0.798268
0.793954 0.355945 0.793952
0.922103 0.354687 0.790075
1.000000 0.353665 0.786865
0.000000 0.508848 0.803443
0.081399 0.507757 0.800256
0.209526 0.506459 0.796393
0.352500 0.505039 0.792072
0.502908 0.503578 0.787517
0.653334 0.502151 0.782950
0.796359 0.500824 0.778599
0.924558 0.499662 0.774691
1.000000 0.498719 0.771455
0.000000 0.653492 0.788168
0.083720 0.652480 0.784955
0.211898 0.651277 0.781060
0.354930 0.649964 0.776704
0.505398 0.648616 0.772112
0.655884 0.647301 0.767508
0.798966 0.646081 0.763122
0.927217 0.645014 0.759182
1.000000 0.644150 0.755920
0.000000 0.791353 0.773530
0.086114 0.790416 0.770293
0.214342 0.789304 0.766367
0.357428 0.788093 0.761978
0.507953 0.786851 0.757351
0.658497 0.785643 0.752712
0.801633 0.784525 0.748292
0.929934 0.783549 0.744323
1.000000 0.782760 0.741036
0.000000 0.915201 0.760316
0.088416 0.914332 0.757056
0.216688 0.913302 0.753104
0.359822 0.912181 0.748685
0.510400 0.911035 0.744026
0.660995 0.909923 0.739356
0.804180 0.908896 0.734906
0.932524 0.908001 0.730909
1.000000 0.907280 0.727601
0.000000 1.000000 0.749328
0.090430 1.000000 0.746049
0.218737 1.000000 0.742075
0.361913 1.000000 0.737631
0.512532 1.000000 0.732946
0.663170 1.000000 0.728250
0.806396 1.000000 0.723776
0.934776 1.000000 0.719757
1.000000 1.000000 0.716430
0.000000 0.004025 0.982316
0.074997 0.002664 0.979218
0.202949 0.001038 0.975462
0.345726 0.000000 0.971262
0.495928 0.000000 0.966833
0.646147 0.000000 0.962393
0.788975 0.000000 0.958162
0.916999 0.000000 0.954362
1.000000 0.000000 0.951215
0.000000 0.104921 0.971873
0.076121 0.103615 0.968757
0.204108 0.102057 0.964979
0.346926 0.100347 0.960754
0.497170 0.098581 0.956299
0.647432 0.096848 0.951833
0.790300 0.095232 0.947577
0.918360 0.093809 0.943754
1.000000 0.092652 0.940589
0.000000 0.227267 0.959153
0.077615 0.226028 0.956015
0.205646 0.224552 0.952210
0.348513 0.222933 0.947955
0.498808 0.221263 0.943469
0.649122 0.219626 0.938971
0.792039 0.218101 0.934686
0.920143 0.216759 0.930836
1.000000 0.215669 0.927649
0.000000 0.364099 0.944855
0.079456 0.362936 0.941692
0.207536 0.361550 0.937857
0.350458 0.360033 0.933568
0.500810 0.358469 0.929047
0.651181 0.356939 0.924514
0.794153 0.355515 0.920195
0.922306 0.354265 0.916315
1.000000 0.353250 0.913103
0.000000 0.508397 0.929693
0.081591 0.507313 0.926504
0.209723 0.506023 0.922637
0.352701 0.504613 0.918314
0.503115 0.503162 0.913755
0.653546 0.501744 0.909186
0.796575 0.500427 0.904831
0.924779 0.499272 0.900920
1.000000 0.498336 0.897682
0.000000 0.653074 0.914407
0.083929 0.652069 0.911192
0.212112 0.650874 0.907294
0.355148 0.649571 0.902935
0.505622 0.648232 0.898339
0.656113 0.646926 0.893733
0.799200 0.645716 0.889343
0.927456 0.644657 0.885401
1.000000 0.643800 0.882137
0.000000 0.790966 0.899759
0.086340 0.790036 0.896519
0.214572 0.788932 0.892591
0.357663 0.787730 0.888199
0.508194 0.786498 0.883568
0.658743 0.785299 0.878927
0.801884 0.784191 0.874504
0.930188 0.783223 0.870531
1.000000 0.782441 0.867242
0.000000 0.914842 0.886535
0.088657 0.913979 0.883273
0.216933 0.912958 0.879318
0.360072 0.911846 0.874896
0.510655 0.910710 0.870234
0.661255 0.909607 0.865561
0.804445 0.908589 0.861108
0.932794 0.907703 0.857109
1.000000 0.906989 0.853798
0.000000 1.000000 0.875540
0.090683 1.000000 0.872259
0.218995 1.000000 0.868282
0.362175 1.000000 0.863835
0.512800 1.000000 0.859147
0.663443 1.000000 0.854448
0.806673 1.000000 0.849970
0.935058 1.000000 0.845949
1.000000 1.000000 0.842619
0.000000 0.003561 1.000000
0.075106 0.002205 1.000000
0.203061 0.000586 1.000000
0.345843 0.000000 1.000000
0.496048 0.000000 1.000000
0.646272 0.000000 1.000000
0.789104 0.000000 1.000000
0.917131 0.000000 1.000000
1.000000 0.000000 1.000000
0.000000 0.104475 1.000000
0.076240 0.103175 1.000000
0.204231 0.101624 1.000000
0.347053 0.099922 1.000000
0.497301 0.098164 1.000000
0.647567 0.096439 1.000000
0.790440 0.094830 1.000000
0.918503 0.093414 1.000000
1.000000 0.092262 1.000000
0.000000 0.226844 1.000000
0.077746 0.225612 1.000000
0.205781 0.224142 1.000000
0.348652 0.222530 1.000000
0.498952 0.220868 1.000000
0.649269 0.219239 1.000000
0.792191 0.217722 1.000000
0.920298 0.216387 1.000000
1.000000 0.215303 1.000000
0.000000 0.363702 1.000000
0.079601 0.362544 1.000000
0.207685 0.361166 1.000000
0.350610 0.359656 1.000000
0.500968 0.358100 1.000000
0.651343 0.356578 1.000000
0.794318 0.355162 1.000000
0.922475 0.353918 1.000000
1.000000 0.352909 1.000000
0.000000 0.508027 1.000000
0.081750 0.506949 1.000000
0.209886 0.505666 1.000000
0.352869 0.504263 1.000000
0.503286 0.502819 1.000000
0.653721 0.501410 1.000000
0.796755 0.500100 1.000000
0.924963 0.498952 1.000000
1.000000 0.498022 1.000000
0.000000 0.652730 1.000000
0.084103 0.651731 1.000000
0.212289 0.650544 1.000000
0.355330 0.649247 1.000000
0.505808 0.647916 1.000000
0.656303 0.646619 0.998040
0.799394 0.645416 0.993648
0.927654 0.644364 0.989703
1.000000 0.643513 0.986437
0.000000 0.790648 1.000000
0.086528 0.789724 1.000000
0.214763 0.788627 0.996897
0.357858 0.787433 0.992503
0.508393 0.786208 0.987870
0.658946 0.785018 0.983225
0.802092 0.783917 0.978800
0.930400 0.782955 0.974825
1.000000 0.782179 0.971534
0.000000 0.914547 0.990838
0.088857 0.913690 0.987574
0.217136 0.912675 0.983617
0.360280 0.911572 0.979193
0.510867 0.910443 0.974528
0.661471 0.909348 0.969852
0.804666 0.908338 0.965397
0.933018 0.907458 0.961395
1.000000 0.906750 0.958082
0.000000 1.000000 0.979836
0.090893 1.000000 0.976554
0.219208 1.000000 0.972575
0.362393 1.000000 0.968125
0.513022 1.000000 0.963435
0.663669 1.000000 0.958733
0.806904 1.000000 0.954253
0.935292 1.000000 0.950229
1.000000 1.000000 0.946898
